!!!!SEGMENT: pl-kk--kk-i-395--001-007_raszek-waclaw--missa-toni-c-credo.krn
!!!cenid: 17xx:2543
!!!COM: Raszek, Wacław
!!!COM-rismID: pe30020314
!!!CDT: <1848->1848
!!!CNT:
!!!OPR: Missa Toni C
!!!OTL: Credo
!!!OMV: 007
!!!PDT: 1789
!!!AGN: Sacred; Mass
!!!YEC: Copyright 2022 Narodowy Instytut Fryderyka Chopina (https://polishscores.org)
!!!YEM: License CC-BY-4.0 (https://creativecommons.org/licenses/by/4.0)
!!!SMS-siglum: PL-Kk
!!!SMS-shelfmark: Kk.I.395
!!!SMS-variant: Violino 1mo. PL-Kk Kk.I.395:26-27; Violino 2do. PL-Kk Kk.I.395:44
!!!SMS-altvar: Violino Primo PL-Kk Kk.I.395:36; Violino Secondo. PL-Kk Kk.I.395:52
!!!SMS-shelfwork: 001-007 M
!!!NIFC-rismSourceID: 1001142055
!!!NIFC-rismChildID: 1001142055
!!!NIFC-islandoraID:
!!!URL-pdf-islandora: https://repozytorium.nifc.pl/islandora/object/pl-kk%3A7416/datastream/PDF/view
!!!URL-scan: https://polish.musicsources.pl/pl/lokalizacje/galeria/rekopisy/6005-missa/1 @EN{Scan on Polish Music Sources Website} @PL{Skany w portalu Dziedzictwo Muzyki Polskiej w otwartym dostępie}
!!!IIIF:
!!!ONB-nifc: UWAGA: Części Mszy: 1. Kyrie, 2. Gloria, 3. Laudamus, 4. Qui tollis, 5. Quoniam, 6. Cum Sancto Spiritu, 7, Credo, 8. Et incarnatus, 9. Et resurrexit, 10. Sanctus, 11. Pleni sunt, 12. Benedictus, 13. Agnus Dei, 14. Dona nobis. Uwaga: Vn na podstawie Violino 1mo s. 22-30 i Violino 2do s. 41-47. Drugie odpisy: Violino Primo s. 31-40 s. i Secondo s. 48-55. Proszę uzupełnić pola SMS wg wzoru w wątku #53.
!!!AIN: 1 alto 1 bass 2 clrno 2 cor 2 oboe 1 organ 1 soprn 1 tenor 1 timpa 2 viole 2 violn
!!!key: C
**kern	**fba	**kern	**dynam	**kern	**dynam	**kern	**dynam	**kern	**dynam	**kern	**text	**kern	**text	**dynam	**kern	**text	**dynam	**kern	**text	**kern	**kern	**dynam	**kern	**dynam	**kern	**dynam	**kern	**dynam	**kern	**dynam	**kern	**dynam
*part16	*	*part15	*part15	*part14	*part14	*part13	*part13	*part12	*part12	*part11	*part11	*part10	*part10	*part10	*part9	*part9	*part9	*part8	*part8	*part7	*part6	*part6	*part5	*part5	*part4	*part4	*part3	*part3	*part2	*part2	*part1	*part1
*staff16	*	*staff15	*	*staff14	*	*staff13	*	*staff12	*	*staff11	*staff11	*staff10	*staff10	*	*staff9	*staff9	*	*staff8	*staff8	*staff7	*staff6	*	*staff5	*	*staff4	*	*staff3	*	*staff2	*	*staff1	*
*group6	*	*group5	*	*group5	*	*group5	*	*group5	*	*group4	*	*group4	*	*	*group4	*	*	*group4	*	*group3	*group2	*	*group2	*	*group2	*	*group2	*	*group1	*	*group1	*
*ICklav	*	*ICstr	*	*ICstr	*	*ICstr	*	*ICstr	*	*ICvox	*	*ICvox	*	*	*ICvox	*	*	*ICvox	*	*ICidio	*ICbras	*	*ICbras	*	*ICbras	*	*ICbras	*	*ICww	*	*ICww	*
*Iorgan	*	*Iviole	*	*Iviole	*	*Ivioln	*	*Ivioln	*	*Ibass	*	*Itenor	*	*	*Ialto	*	*	*Isoprn	*	*Itimpa	*Iclrno	*	*Iclrno	*	*Icor	*	*Icor	*	*Ioboe	*	*Ioboe	*
*I"Organo	*	*I"Violone	*	*I"Viola di Alto	*	*I"Violino 2do	*	*I"Violino 1mo.	*	*I"Baſso	*	*I"Tenore	*	*	*I"Alto.	*	*	*I"Canto	*	*I"Tympano in C.	*I"Clarino 2do in C.	*	*I"Clarino 1mo in C	*	*I"Cornu 2do in C	*	*I"Cornu 1mo. in C.	*	*I"Oboe 2do	*	*I"Oboe 1mo	*
*I'org	*	*I'vlne	*	*I'a-vla	*	*I'vl 2	*	*I'vl 1	*	*I'B	*	*I'T	*	*	*I'A	*	*	*I'S	*	*I'timp	*I'clno 2 in C	*	*I'clno 1 in C	*	*I'cor 2 in C	*	*I'cor 1 in C	*	*I'ob 2	*	*I'ob 1	*
*clefF4	*	*clefF4	*	*clefC3	*	*clefG2	*	*clefG2	*	*clefF4	*	*clefC4	*	*	*clefC3	*	*	*clefC1	*	*clefF4	*clefG2	*	*clefG2	*	*clefG2	*	*clefG2	*	*clefG2	*	*clefG2	*
*	*	*	*	*	*	*	*	*	*	*	*	*	*	*	*	*	*	*	*	*	*	*	*	*	*Trd0c0	*	*Trd0c0	*	*	*	*	*
*k[]	*	*k[]	*	*k[]	*	*k[]	*	*k[]	*	*k[]	*	*k[]	*	*	*k[]	*	*	*k[]	*	*k[]	*k[]	*	*k[]	*	*k[]	*	*k[]	*	*k[]	*	*k[]	*
*C:	*	*C:	*	*C:	*	*C:	*	*C:	*	*C:	*	*C:	*	*	*C:	*	*	*C:	*	*C:	*C:	*	*C:	*	*C:	*	*C:	*	*C:	*	*C:	*
*M4/4	*	*M4/4	*	*M4/4	*	*M4/4	*	*M4/4	*	*M4/4	*	*M4/4	*	*	*M4/4	*	*	*M4/4	*	*M4/4	*M4/4	*	*M4/4	*	*M4/4	*	*M4/4	*	*M4/4	*	*M4/4	*
*met(c)	*	*met(c)	*	*met(c)	*	*met(c)	*	*met(c)	*	*met(c)	*	*met(c)	*	*	*met(c)	*	*	*met(c)	*	*met(c)	*met(c)	*	*met(c)	*	*met(c)	*	*met(c)	*	*met(c)	*	*met(c)	*
=1	=1	=1	=1	=1	=1	=1	=1	=1	=1	=1	=1	=1	=1	=1	=1	=1	=1	=1	=1	=1	=1	=1	=1	=1	=1	=1	=1	=1	=1	=1	=1	=1
*\right	*	*\right	*	*\right	*	*\right	*	*\right	*	*\right	*	*\right	*	*	*\right	*	*	*\right	*	*\right	*\right	*	*\right	*	*\right	*	*\right	*	*\right	*	*\right	*
!!LO:TX:t=P:problem:all\right
!!LO:TX:t=P:problem:metrum C.
!LO:TX:a:B:t=Allo	!	!LO:TX:a:B:t=Allo	!	!	!	!LO:TX:a:B:t=Allo	!	!	!	!LO:TX:t=P:problem:C.	!	!LO:TX:t=P:problem:C.	!	!	!LO:TX:t=P:problem:C.	!	!	!LO:TX:t=P:problem:C.	!	!	!	!	!	!	!	!	!	!	!	!	!	!
!LO:TX:a:t=Tutti	!	!LO:TX:a:t=Tutti	!	!LO:TX:a:B:t=Allo	!LO:DY:a:rj:t=ffor&colon;	!LO:TX:a:t=Tutti	!LO:DY:a:t=ff.	!LO:TX:a:B:t=Allo n molto	!LO:DY:a:t=ffor.	!LO:TX:a:B:t=Allo	!	!LO:TX:a:B:t=Allo	!	!LO:DY:a:rj:t=ffor&colon;	!LO:TX:a:B:t=Allo	!	!LO:DY:a:rj:t=ffor&colon;	!LO:TX:a:B:t=Allo	!	!LO:TX:a:B:t=Allo	!LO:TX:a:B:t=Allo	!LO:DY:a:t=ffor&colon;	!LO:TX:a:B:t=Allo	!LO:DY:a:t=ffor&colon;	!LO:TX:a:B:t=Allo	!LO:DY:a:t=ffor&colon;	!LO:TX:a:B:t=Allo	!LO:DY:a:t=ffor&colon;	!LO:TX:a:B:t=Allo	!LO:DY:a:rj:t=ffor&colon;	!LO:TX:a:B:t=Allo	!LO:DY:a:rj:t=ffor&colon;
4C/	.	4C/	.	4c\	ff	4e 4G/	ff	4cc 4e\	ff	4C/	Cre-	4G/	Cre-	ff	4e\	Cre-	ff	4cc\	Cre-	4C/	4e/	ff	4cc\	ff	4cc\	ff	4ee\	ff	4g/	ff	4cc\	ff
4C/	.	4C/	.	4c\	.	4e 4G/	.	4cc 4e\	.	4C/	-do	4G/	-do	.	4e\	-do	.	4cc\	-do	4C/	4e/	.	4cc\	.	4cc\	.	4ee\	.	4g/	.	4cc\	.
2r	.	2r	.	2r	.	2r	.	16b\LL	.	2r	.	2r	.	.	2r	.	.	2r	.	2r	2r	.	2r	.	2r	.	2r	.	2r	.	2r	.
.	.	.	.	.	.	.	.	16cc\	.	.	.	.	.	.	.	.	.	.	.	.	.	.	.	.	.	.	.	.	.	.	.	.
.	.	.	.	.	.	.	.	16aa\	.	.	.	.	.	.	.	.	.	.	.	.	.	.	.	.	.	.	.	.	.	.	.	.
.	.	.	.	.	.	.	.	16gg\JJ	.	.	.	.	.	.	.	.	.	.	.	.	.	.	.	.	.	.	.	.	.	.	.	.
.	.	.	.	.	.	.	.	16ff\LL	.	.	.	.	.	.	.	.	.	.	.	.	.	.	.	.	.	.	.	.	.	.	.	.
.	.	.	.	.	.	.	.	16ee\	.	.	.	.	.	.	.	.	.	.	.	.	.	.	.	.	.	.	.	.	.	.	.	.
.	.	.	.	.	.	.	.	16dd\	.	.	.	.	.	.	.	.	.	.	.	.	.	.	.	.	.	.	.	.	.	.	.	.
.	.	.	.	.	.	.	.	16cc\JJ	.	.	.	.	.	.	.	.	.	.	.	.	.	.	.	.	.	.	.	.	.	.	.	.
=2	=2	=2	=2	=2	=2	=2	=2	=2	=2	=2	=2	=2	=2	=2	=2	=2	=2	=2	=2	=2	=2	=2	=2	=2	=2	=2	=2	=2	=2	=2	=2	=2
*	*	*	*	*	*	*	*	*	*	*	*ij	*	*ij	*	*	*ij	*	*	*ij	*	*	*	*	*	*	*	*	*	*	*	*	*
4D\	6 3_	4D\	.	4d\	.	4f 4G/	.	4b\	.	4D\	Cre-	4G/	Cre-	.	4f\	Cre-	.	4b\	Cre-	4GG/	4g/	.	4g/	.	4g/	.	4dd\	.	4b\	.	4gg\	.
4D\	.	4D\	.	4d\	.	4f 4G/	.	4b\	.	4D\	-do	4G/	-do	.	4f\	-do	.	4b\	-do	4GG/	4g/	.	4g/	.	4g/	.	4dd\	.	4b\	.	4gg\	.
*	*	*	*	*2\right	*	*	*	*	*	*	*	*	*Xij	*	*	*Xij	*	*	*Xij	*	*	*	*2\right	*	*	*	*2\right	*	*	*	*	*
2r	X X	2r	.	2r	.	2r	.	16b\LL	.	2r	.	2r	.	.	2r	.	.	2r	.	2r	2r	.	2r	.	2r	.	2r	.	2r	.	2r	.
.	.	.	.	.	.	.	.	16dd\	.	.	.	.	.	.	.	.	.	.	.	.	.	.	.	.	.	.	.	.	.	.	.	.
.	.	.	.	.	.	.	.	16gg\	.	.	.	.	.	.	.	.	.	.	.	.	.	.	.	.	.	.	.	.	.	.	.	.
.	.	.	.	.	.	.	.	16ff\JJ	.	.	.	.	.	.	.	.	.	.	.	.	.	.	.	.	.	.	.	.	.	.	.	.
.	.	.	.	.	.	.	.	16ee\LL	.	.	.	.	.	.	.	.	.	.	.	.	.	.	.	.	.	.	.	.	.	.	.	.
.	.	.	.	.	.	.	.	16dd\	.	.	.	.	.	.	.	.	.	.	.	.	.	.	.	.	.	.	.	.	.	.	.	.
.	.	.	.	.	.	.	.	16cc\	.	.	.	.	.	.	.	.	.	.	.	.	.	.	.	.	.	.	.	.	.	.	.	.
.	.	.	.	.	.	.	.	16b\JJ	.	.	.	.	.	.	.	.	.	.	.	.	.	.	.	.	.	.	.	.	.	.	.	.
=3	=3	=3	=3	=3	=3	=3	=3	=3	=3	=3	=3	=3	=3	=3	=3	=3	=3	=3	=3	=3	=3	=3	=3	=3	=3	=3	=3	=3	=3	=3	=3	=3
*	*	*	*	*tremolo	*	*tremolo	*	*	*	*	*	*	*	*	*	*	*	*	*	*tremolo	*tremolo	*	*tremolo	*	*tremolo	*	*tremolo	*	*	*	*	*
8C/L	.	8C/L	.	8g\L	.	16e/LL	.	4.cc\	.	4C/	Cre-	4G/	Cre-	.	4e\	Cre-	.	4cc\	Cre-	8C/L	8c/L	.	8cc\L	.	8c/L	.	8cc\L	.	2g/	.	4.cc\	.
.	.	.	.	.	.	16e/	.	.	.	.	.	.	.	.	.	.	.	.	.	.	.	.	.	.	.	.	.	.	.	.	.	.
8C/	.	8C/	.	8g\	.	16e/	.	.	.	.	.	.	.	.	.	.	.	.	.	8C/	8c/	.	8cc\	.	8c/	.	8cc\	.	.	.	.	.
.	.	.	.	.	.	16e/JJ	.	.	.	.	.	.	.	.	.	.	.	.	.	.	.	.	.	.	.	.	.	.	.	.	.	.
8C/	.	8C/	.	8g\	.	16g/LL	.	.	.	8C/	-do	8G/	-do	.	8e\	-do	.	8cc\	-do	8C/	8c/	.	8cc\	.	8c/	.	8cc\	.	.	.	.	.
*	*	*	*	*	*	*	*	*	*	*	*Xij	*	*	*	*	*	*	*	*	*	*	*	*	*	*	*	*	*	*	*	*2\right	*
.	.	.	.	.	.	16g/	.	.	.	.	.	.	.	.	.	.	.	.	.	.	.	.	.	.	.	.	.	.	.	.	.	.
8C/J	.	8C/J	.	8g\J	.	16g/	.	16dd\LL	.	8C/	in	8c\	in	.	16f\LL	in	.	16dd\LL	in	8C/J	8c/J	.	8cc\J	.	8c/J	.	8cc\J	.	.	.	16dd\LL	.
.	.	.	.	.	.	16g/JJ	.	16ee\JJ	.	.	.	.	.	.	16g\JJ	.	.	16ee\JJ	.	.	.	.	.	.	.	.	.	.	.	.	16ee\JJ	.
*tremolo	*	*tremolo	*	*	*	*	*	*	*	*	*	*	*	*	*	*	*	*	*	*	*	*	*	*	*	*	*	*	*tremolo	*	*tremolo	*
8C/L	6 4	8C/L	.	8f\L	.	16a/LL	.	8ff\L	.	8C/	U-	8c\	U-	.	8a\	U-	.	8ff\	U-	8C/L	8c/L	.	8cc\L	.	8c/L	.	8cc\L	.	8a/L	.	8ff\L	.
.	.	.	.	.	.	16a/	.	.	.	.	.	.	.	.	.	.	.	.	.	.	.	.	.	.	.	.	.	.	.	.	.	.
8C/	.	8C/	.	8f\	.	16a/	.	8ff\	.	8C/	-num	8c\	-num	.	8a\	-num	.	8ff\	-num	8C/	8c/	.	8cc\	.	8c/	.	8cc\	.	8a/	.	8ff\	.
.	.	.	.	.	.	16a/	.	.	.	.	.	.	.	.	.	.	.	.	.	.	.	.	.	.	.	.	.	.	.	.	.	.
8C/	.	8C/	.	8f\	.	16a/	.	8ff\	.	4C/	De-	4c\	De-	.	4a\	De-	.	4ff\	De-	8C/	8c/	.	8cc\	.	8c/	.	8cc\	.	8a/	.	8ff\	.
.	.	.	.	.	.	16a/	.	.	.	.	.	.	.	.	.	.	.	.	.	.	.	.	.	.	.	.	.	.	.	.	.	.
8C/J	.	8C/J	.	8f\J	.	16a/	.	8ff\J	.	.	.	.	.	.	.	.	.	.	.	8C/J	8c/J	.	8cc\J	.	8c/J	.	8cc\J	.	8a/J	.	8ff\J	.
.	.	.	.	.	.	16a/JJ	.	.	.	.	.	.	.	.	.	.	.	.	.	.	.	.	.	.	.	.	.	.	.	.	.	.
*	*	*	*	*	*	*	*	*	*	*	*	*	*	*	*	*	*	*	*	*	*	*	*	*	*	*	*	*	*	*	*Xtremolo	*
=4	=4	=4	=4	=4	=4	=4	=4	=4	=4	=4	=4	=4	=4	=4	=4	=4	=4	=4	=4	=4	=4	=4	=4	=4	=4	=4	=4	=4	=4	=4	=4	=4
8C/L	5 3	8C/L	.	8e\L	.	16g/LL	.	4.ee\	.	8C/	-um	8c\	-um	.	8g\	-um	.	8ee\	-um	8C/L	8c/L	.	8cc\L	.	8c/L	.	8cc\L	.	8g/L	.	4.ee\	.
.	.	.	.	.	.	16g/	.	.	.	.	.	.	.	.	.	.	.	.	.	.	.	.	.	.	.	.	.	.	.	.	.	.
8C/	.	8C/	.	8e\	.	16g/	.	.	.	8C/	Pa-	8c\	Pa-	.	8g\	Pa-	.	8ee\	Pa-	8C/	8c/	.	8cc\	.	8c/	.	8cc\	.	8g/	.	.	.
.	.	.	.	.	.	16g/	.	.	.	.	.	.	.	.	.	.	.	.	.	.	.	.	.	.	.	.	.	.	.	.	.	.
8C/	.	8C/	.	8e\	.	16g/	.	.	.	8C/	-trem	8c\	-trem	.	8g\	-trem	.	8ee\	-trem	8C/	8c/	.	8cc\	.	8c/	.	8cc\	.	8g/	.	.	.
.	.	.	.	.	.	16g/	.	.	.	.	.	.	.	.	.	.	.	.	.	.	.	.	.	.	.	.	.	.	.	.	.	.
8C/J	.	8C/J	.	8e\J	.	16g/	.	16ff\LL	.	8C/	om-	8c\	om-	.	8g\	om-	.	8ee\	om-	8C/J	8c/J	.	8cc\J	.	8c/J	.	8cc\J	.	8g/J	.	16ff\LL	.
.	.	.	.	.	.	16g/JJ	.	16gg\JJ	.	.	.	.	.	.	.	.	.	.	.	.	.	.	.	.	.	.	.	.	.	.	16gg\JJ	.
*	*	*	*	*	*	*	*	*	*	*	*	*	*	*	*	*	*	*	*	*	*	*	*	*	*	*	*	*	*Xtremolo	*	*tremolo	*
!	!	!	!	!	!	!	!	!	!	!	!	!	!	!	!	!	!	!	!	!	!	!	!	!	!	!	!	!	!LO:TX:t=P:problem:mixed beam	!	!	!
8C/L	6 4	8C/L	.	8c\L	.	16f/LL	.	8aa\L	.	8C/	-ni-	8c\	-ni-	.	8a\	-ni-	.	8ff\	-ni-	8C/L	8c/L	.	8cc\L	.	8c/L	.	8cc\L	.	8f/L	.	8aa\L	.
.	.	.	.	.	.	16f/	.	.	.	.	.	.	.	.	.	.	.	.	.	.	.	.	.	.	.	.	.	.	.	.	.	.
8C/	.	8C/	.	8c\	.	16f/	.	8aa\	.	8C/	-po-	8c\	-po-	.	8a\	-po-	.	8ff\	-po-	8C/	8c/	.	8cc\	.	8c/	.	8cc\	.	8ff\	.	8aa\	.
.	.	.	.	.	.	16f/	.	.	.	.	.	.	.	.	.	.	.	.	.	.	.	.	.	.	.	.	.	.	.	.	.	.
8C/	.	8C/	.	8c\	.	16f/	.	8aa\	.	4C/	-ten-	4c\	-ten-	.	4a\	-ten-	.	4ff\	-ten-	8C/	8c/	.	8cc\	.	8c/	.	8cc\	.	8ff\	.	8aa\	.
.	.	.	.	.	.	16f/	.	.	.	.	.	.	.	.	.	.	.	.	.	.	.	.	.	.	.	.	.	.	.	.	.	.
8C/J	.	8C/J	.	8c\J	.	16f/	.	8aa\J	.	.	.	.	.	.	.	.	.	.	.	8C/J	8c/J	.	8cc\J	.	8c/J	.	8cc\J	.	8ff\J	.	8aa\J	.
.	.	.	.	.	.	16f/JJ	.	.	.	.	.	.	.	.	.	.	.	.	.	.	.	.	.	.	.	.	.	.	.	.	.	.
*Xtremolo	*	*Xtremolo	*	*	*	*	*	*	*	*	*	*	*	*	*	*	*	*	*	*	*	*	*	*	*	*	*	*	*	*	*Xtremolo	*
=5	=5	=5	=5	=5	=5	=5	=5	=5	=5	=5	=5	=5	=5	=5	=5	=5	=5	=5	=5	=5	=5	=5	=5	=5	=5	=5	=5	=5	=5	=5	=5	=5
*	*	*	*	*	*	*	*	*	*	*	*	*	*	*	*	*	*	*	*	*	*	*	*	*	*	*	*	*	*2\right	*	*	*
!LO:TX:t=P:problem:mixed beam	!	!LO:TX:t=P:problem:mixed beam	!	!	!	!	!	!	!	!	!	!	!	!	!	!	!	!	!	!	!	!	!	!	!	!	!	!	!	!	!	!
8C/L	.	8C/L	.	8c\L	.	16e/LL	.	8.gg\L	.	4C/	-tem	4.c\	-tem	.	4.g\	-tem	.	4.ee\	-tem	8C/L	8c/L	.	8cc\L	.	8c/L	.	8cc\L	.	2ee\	.	2gg\	.
.	.	.	.	.	.	16e/	.	.	.	.	.	.	.	.	.	.	.	.	.	.	.	.	.	.	.	.	.	.	.	.	.	.
8c\	5 3	8c\	.	8c\	.	16e/	.	.	.	.	.	.	.	.	.	.	.	.	.	8C/	8c/	.	8cc\	.	8c/	.	8cc\	.	.	.	.	.
.	.	.	.	.	.	16e/	.	32aa\LL	.	.	.	.	.	.	.	.	.	.	.	.	.	.	.	.	.	.	.	.	.	.	.	.
.	.	.	.	.	.	.	.	32bb\JJJ	.	.	.	.	.	.	.	.	.	.	.	.	.	.	.	.	.	.	.	.	.	.	.	.
8c\	.	8c\	.	8c\	.	16e/	.	16ccc\LL	.	4c\	Fac-	.	.	.	.	.	.	.	.	8C/	8c/	.	8cc\	.	8c/	.	8cc\	.	.	.	.	.
.	.	.	.	.	.	16e/	.	16gg\	.	.	.	.	.	.	.	.	.	.	.	.	.	.	.	.	.	.	.	.	.	.	.	.
8c\J	.	8c\J	.	8c\J	.	16e/	.	16ee\	.	.	.	8c\	fac-	.	8g\	fac-	.	8ee\	fac-	8C/J	8c/J	.	8cc\J	.	8c/J	.	8cc\J	.	.	.	.	.
.	.	.	.	.	.	16e/JJ	.	16cc\JJ	.	.	.	.	.	.	.	.	.	.	.	.	.	.	.	.	.	.	.	.	.	.	.	.
*2\right	*	*2\right	*	*	*	*	*	*2\right	*	*	*	*	*	*	*	*	*	*	*	*	*	*	*	*	*	*	*	*	*	*	*	*
*tremolo	*	*tremolo	*	*	*	*	*	*tremolo	*	*	*	*	*	*	*	*	*	*	*	*	*	*	*	*	*	*	*	*	*	*	*	*
!	!	!	!	!	!	!	!	!LO:LB:g=original	!	!	!	!	!	!	!	!	!	!	!	!	!	!	!	!	!	!	!	!	!	!	!	!
8c\L	6 4	8c\L	.	8c\L	.	16a/LL	.	8ff\L	.	4.c\	-to-	4.c\	-to-	.	4.a\	-to-	.	4.ff\	-to-	8C/L	8c/L	.	8cc\L	.	8c/L	.	8cc\L	.	2a/	.	2ff\	.
.	.	.	.	.	.	16a/	.	.	.	.	.	.	.	.	.	.	.	.	.	.	.	.	.	.	.	.	.	.	.	.	.	.
8c\	.	8c\	.	8c\	.	16a/	.	8ff\	.	.	.	.	.	.	.	.	.	.	.	8C/	8c/	.	8cc\	.	8c/	.	8cc\	.	.	.	.	.
.	.	.	.	.	.	16a/	.	.	.	.	.	.	.	.	.	.	.	.	.	.	.	.	.	.	.	.	.	.	.	.	.	.
8c\	.	8c\	.	8c\	.	16a/	.	8ff\	.	.	.	.	.	.	.	.	.	.	.	8C/	8c/	.	8cc\	.	8c/	.	8cc\	.	.	.	.	.
.	.	.	.	.	.	16a/	.	.	.	.	.	.	.	.	.	.	.	.	.	.	.	.	.	.	.	.	.	.	.	.	.	.
8c\J	.	8c\J	.	8c\J	.	16a/	.	8ff\J	.	8c\	-rem	8c\	-rem	.	8a\	-rem	.	8ff\	-rem	8C/J	8c/J	.	8cc\J	.	8c/J	.	8cc\J	.	.	.	.	.
.	.	.	.	.	.	16a/JJ	.	.	.	.	.	.	.	.	.	.	.	.	.	.	.	.	.	.	.	.	.	.	.	.	.	.
*	*	*	*	*	*	*	*	*Xtremolo	*	*	*	*	*	*	*	*	*	*	*	*	*	*	*	*	*	*	*	*	*	*	*	*
!	!	!	!	!	!	!	!	!	!	!	!	!	!	!	!	!	!	!LO:LB:g=original	!	!	!	!	!	!	!	!	!	!	!	!	!	!
=6	=6	=6	=6	=6	=6	=6	=6	=6	=6	=6	=6	=6	=6	=6	=6	=6	=6	=6	=6	=6	=6	=6	=6	=6	=6	=6	=6	=6	=6	=6	=6	=6
8c\L	5 3	8c\L	.	8c\L	.	16g/LL	.	8ee\L	.	4c\	Cae-	4c\	Cae-	.	4g\	Cae-	.	4ee\	Cae-	8C/L	8c/L	.	8cc\L	.	8c/L	.	8cc\L	.	4g/	.	4ee\	.
.	.	.	.	.	.	16g/	.	.	.	.	.	.	.	.	.	.	.	.	.	.	.	.	.	.	.	.	.	.	.	.	.	.
8c\	.	8c\	.	8c\	.	16g/	.	8ee\	.	.	.	.	.	.	.	.	.	.	.	8C/	8c/	.	8cc\	.	8c/	.	8cc\	.	.	.	.	.
.	.	.	.	.	.	16g/JJ	.	.	.	.	.	.	.	.	.	.	.	.	.	.	.	.	.	.	.	.	.	.	.	.	.	.
!	!	!	!	!	!	!	!	!	!	!	!	!LO:LB:g=original	!	!	!	!	!	!	!	!	!	!	!	!	!	!	!	!	!	!	!	!
8c\	6 4	8c\	.	8c\	.	16f/LL	.	8aa\	.	8c\	-li	8c\	-li	.	8a\	-li	.	8ff\	-li	8C/	8c/	.	8cc\	.	8c/	.	8cc\	.	4ff\	.	4aa\	.
.	.	.	.	.	.	16f/	.	.	.	.	.	.	.	.	.	.	.	.	.	.	.	.	.	.	.	.	.	.	.	.	.	.
8c\J	.	8c\J	.	8c\J	.	16f/	.	8aa\J	.	8c\	et	8c\	et	.	8a\	et	.	8ff\	et	8C/J	8c/J	.	8cc\J	.	8c/J	.	8cc\J	.	.	.	.	.
.	.	.	.	.	.	16f/JJ	.	.	.	.	.	.	.	.	.	.	.	.	.	.	.	.	.	.	.	.	.	.	.	.	.	.
*	*	*	*	*	*	*	*	*	*	*2\right	*	*	*	*	*2\right	*	*	*	*	*	*Xtremolo	*	*Xtremolo	*	*Xtremolo	*	*Xtremolo	*	*	*	*	*
!	!	!	!	!	!	!	!	!	!	!LO:LB:g=original	!	!	!	!	!LO:LB:g=original	!	!	!	!	!	!	!	!	!	!	!	!	!	!	!	!	!
8c\L	5 3	8c\L	.	8c\L	.	16e/LL	.	8gg\L	.	2c\	ter-	(4c\	ter-	.	2g\	ter-	.	(4ee\	ter-	8C/L	8c/L	.	8cc\L	.	8c/L	.	8cc\L	.	4ee\	.	4gg\	.
.	.	.	.	.	.	16e/	.	.	.	.	.	.	.	.	.	.	.	.	.	.	.	.	.	.	.	.	.	.	.	.	.	.
8c\	.	8c\	.	8c\	.	16e/	.	8gg\	.	.	.	.	.	.	.	.	.	.	.	8C/	8c/	.	8cc\	.	8c/	.	8cc\	.	.	.	.	.
.	.	.	.	.	.	16e/JJ	.	.	.	.	.	.	.	.	.	.	.	.	.	.	.	.	.	.	.	.	.	.	.	.	.	.
8c\	7 2	8c\	.	8c\	.	16f/LL	.	8bb\	.	.	.	4B\)	.	.	.	.	.	4dd\)	.	8C/	8g/	.	8dd\	.	8g/	.	8dd\	.	4ff\	.	4bb\	.
.	.	.	.	.	.	16f/	.	.	.	.	.	.	.	.	.	.	.	.	.	.	.	.	.	.	.	.	.	.	.	.	.	.
8c\J	.	8c\J	.	8c\J	.	16f/	.	8bb\J	.	.	.	.	.	.	.	.	.	.	.	8C/J	8g/J	.	8dd\J	.	8g/J	.	8dd\J	.	.	.	.	.
.	.	.	.	.	.	16f/JJ	.	.	.	.	.	.	.	.	.	.	.	.	.	.	.	.	.	.	.	.	.	.	.	.	.	.
*Xtremolo	*	*Xtremolo	*	*Xtremolo	*	*Xtremolo	*	*	*	*	*	*	*	*	*	*	*	*	*	*Xtremolo	*	*	*	*	*	*	*	*	*	*	*	*
=7	=7	=7	=7	=7	=7	=7	=7	=7	=7	=7	=7	=7	=7	=7	=7	=7	=7	=7	=7	=7	=7	=7	=7	=7	=7	=7	=7	=7	=7	=7	=7	=7
4c\	.	4c\	.	4c\	.	4e/	.	16ccc\LL	.	4c\	-rae	4c\	-rae	.	4g\	-rae	.	4ee\	-rae	4C/	4e/	.	4cc\	.	4cc\	.	4ee\	.	4ee\	.	4ccc\	.
.	.	.	.	.	.	.	.	16bb\	.	.	.	.	.	.	.	.	.	.	.	.	.	.	.	.	.	.	.	.	.	.	.	.
.	.	.	.	.	.	.	.	16aa\	.	.	.	.	.	.	.	.	.	.	.	.	.	.	.	.	.	.	.	.	.	.	.	.
.	.	.	.	.	.	.	.	16gg\JJ	.	.	.	.	.	.	.	.	.	.	.	.	.	.	.	.	.	.	.	.	.	.	.	.
8r	.	8r	.	8r	.	8r	.	16ff\LL	.	4r	.	4r	.	.	4r	.	.	4r	.	8r	8r	.	8r	.	8r	.	8r	.	8r	.	8r	.
.	.	.	.	.	.	.	.	16ee\	.	.	.	.	.	.	.	.	.	.	.	.	.	.	.	.	.	.	.	.	.	.	.	.
8c\	.	8c\	.	8c\	.	8e/	.	16dd\	.	.	.	.	.	.	.	.	.	.	.	8C/	8e/	.	8cc\	.	8cc\	.	8ee\	.	8ee\	.	8gg\	.
.	.	.	.	.	.	.	.	16cc\JJ	.	.	.	.	.	.	.	.	.	.	.	.	.	.	.	.	.	.	.	.	.	.	.	.
*	*	*	*	*	*	*	*	*	*	*	*	*	*	*	*	*	*	*	*	*tremolo	*	*	*	*	*	*	*	*	*	*	*	*
8B\L	6	8B\L	.	8B/L	.	16d/LL	.	16ff#X\LL	.	4.G\	vi-	4.B\	vi-	.	4.g\	Vi-	.	4.dd\	vi-	8GG/L	2g/	.	2dd\	.	2g/	.	2dd\	.	2dd\	.	2gg\	.
.	.	.	.	.	.	16g/	.	16gg\	.	.	.	.	.	.	.	.	.	.	.	.	.	.	.	.	.	.	.	.	.	.	.	.
8G\	.	8G\	.	8G/	.	16d/	.	16aa\	.	.	.	.	.	.	.	.	.	.	.	8GG/	.	.	.	.	.	.	.	.	.	.	.	.
.	.	.	.	.	.	16g/JJ	.	16gg\JJ	.	.	.	.	.	.	.	.	.	.	.	.	.	.	.	.	.	.	.	.	.	.	.	.
*	*	*	*	*	*	*rep	*	*	*	*	*	*	*	*	*	*	*	*	*	*	*	*	*	*	*	*	*	*	*	*	*	*
8B\	_	8B\	.	8B/	.	16d/LL	.	16dd\LL	.	.	.	.	.	.	.	.	.	.	.	8GG/	.	.	.	.	.	.	.	.	.	.	.	.
.	.	.	.	.	.	16g/	.	16ee\	.	.	.	.	.	.	.	.	.	.	.	.	.	.	.	.	.	.	.	.	.	.	.	.
8G\J	X	8G\J	.	8G/J	.	16d/	.	16ffn\	.	8G\	-ſi-	8B\	-si-	.	8g\	-si-	.	8dd\	-si-	8GG/J	.	.	.	.	.	.	.	.	.	.	.	.
.	.	.	.	.	.	16g/JJ	.	16dd\JJ	.	.	.	.	.	.	.	.	.	.	.	.	.	.	.	.	.	.	.	.	.	.	.	.
*	*	*custos:c	*	*	*	*Xrep	*	*	*	*	*	*	*	*	*	*	*	*	*	*Xtremolo	*	*	*	*	*	*	*	*	*	*	*	*
!	!	!LO:LB:g=original	!	!	!	!LO:LB:g=original	!	!	!	!	!	!	!	!	!	!	!	!	!	!	!	!	!	!	!	!	!	!	!	!	!	!
=8	=8	=8	=8	=8	=8	=8	=8	=8	=8	=8	=8	=8	=8	=8	=8	=8	=8	=8	=8	=8	=8	=8	=8	=8	=8	=8	=8	=8	=8	=8	=8	=8
!LO:TX:t=P:problem:mixed beam	!	!LO:TX:t=P:problem:mixed beam	!	!LO:TX:t=P:problem:mixed beam	!	!	!	!	!	!	!	!	!	!	!	!	!	!	!	!	!	!	!	!	!	!	!	!	!	!	!	!
8c\L	.	8c\L	.	8c\L	.	16e/LL	.	16ee\LL	.	4c\	-bi-	4c\	-bi-	.	4g\	-bi-	.	4ee\	-bi-	8C/L	4cc\	.	4ee\	.	4cc\	.	4ee\	.	4ee\	.	4gg\	.
.	.	.	.	.	.	16g/	.	16gg\	.	.	.	.	.	.	.	.	.	.	.	.	.	.	.	.	.	.	.	.	.	.	.	.
8C/J	.	8C/J	.	8C/J	.	16e/	.	16aa\	.	.	.	.	.	.	.	.	.	.	.	8C/J	.	.	.	.	.	.	.	.	.	.	.	.
.	.	.	.	.	.	16g/JJ	.	16gg\JJ	.	.	.	.	.	.	.	.	.	.	.	.	.	.	.	.	.	.	.	.	.	.	.	.
*	*	*	*	*	*	*rep	*	*	*	*	*	*	*	*	*	*	*	*	*	*	*	*	*	*	*	*	*	*	*	*	*	*
!	!	!	!	!	!	!LO:TX:t=P:problem:grupa: 16d 16g 16d 16g poprawiona na repetycję	!	!	!	!	!	!	!	!	!	!	!	!	!	!	!	!	!	!	!	!	!	!	!	!	!	!
8r	.	8r	.	8r	.	16e/LL	.	16ccc\LL	.	8C/	-li-	8c\	-li-	.	8g\	-li-	.	8ee\	-li-	8r	8r	.	8r	.	8r	.	8r	.	8r	.	8r	.
.	.	.	.	.	.	16g/	.	16gg\	.	.	.	.	.	.	.	.	.	.	.	.	.	.	.	.	.	.	.	.	.	.	.	.
8c\	.	8c\	.	8c\	.	16e/	.	16ee\	.	8C/	-um	8c\	-um	.	8g\	-um	.	8ee\	-um	8C/	8e/	.	8cc\	.	8cc\	.	8ee\	.	8ee\	.	8gg\	.
.	.	.	.	.	.	16g/JJ	.	16cc\JJ	.	.	.	.	.	.	.	.	.	.	.	.	.	.	.	.	.	.	.	.	.	.	.	.
*	*	*	*	*	*	*Xrep	*	*	*	*	*	*	*	*	*	*	*	*	*	*tremolo	*	*	*	*	*	*	*	*	*	*	*	*
!LO:LB:g=original	!	!	!	!	!	!	!	!	!	!	!	!	!	!	!	!	!	!	!	!	!	!	!	!	!	!	!	!	!	!	!	!
8B\L	6	8B\L	.	8B/L	.	16d/LL	.	16ff#X\LL	.	4.G\	Om-	4.B\	Om-	.	4.g\	Om-	.	4.dd\	Om-	8GG/L	2g/	.	2dd\	.	2g/	.	2dd\	.	2dd\	.	2gg\	.
.	.	.	.	.	.	16g/	.	16gg\	.	.	.	.	.	.	.	.	.	.	.	.	.	.	.	.	.	.	.	.	.	.	.	.
8G\	.	8G\	.	8G/	.	16d/	.	16aa\	.	.	.	.	.	.	.	.	.	.	.	8GG/	.	.	.	.	.	.	.	.	.	.	.	.
.	.	.	.	.	.	16g/JJ	.	16gg\JJ	.	.	.	.	.	.	.	.	.	.	.	.	.	.	.	.	.	.	.	.	.	.	.	.
8B\	.	8B\	.	8B/	.	16d/LL	.	16dd\LL	.	.	.	.	.	.	.	.	.	.	.	8GG/	.	.	.	.	.	.	.	.	.	.	.	.
.	.	.	.	.	.	16g/	.	16ee\	.	.	.	.	.	.	.	.	.	.	.	.	.	.	.	.	.	.	.	.	.	.	.	.
8G\J	.	8G\J	.	8G/J	.	16d/	.	16ffn\	.	8G\	-ni-	8B\	-ni-	.	8g\	-ni-	.	8dd\	-ni-	8GG/J	.	.	.	.	.	.	.	.	.	.	.	.
.	.	.	.	.	.	16g/JJ	.	16dd\JJ	.	.	.	.	.	.	.	.	.	.	.	.	.	.	.	.	.	.	.	.	.	.	.	.
*	*	*	*	*	*	*	*	*	*	*	*	*	*	*	*	*	*	*	*	*Xtremolo	*	*	*	*	*	*	*	*	*	*	*	*
!	!	!	!	!LO:LB:g=original	!	!	!	!	!	!	!	!	!	!	!	!	!	!	!	!	!	!	!	!	!	!	!	!	!LO:LB:g=original	!	!	!
=	=	=	=	=	=	=	=	=	=	=	=	=	=	=	=	=	=	=	=	=	=	=	=	=	=	=	=	=	=	=	=	=
!!LO:TX:t=P:problem:zbędne powtórzenie t. 8 w ob II wykreślone ołówkiem
1ryy	.	1ryy	.	1ryy	.	1ryy	.	1ryy	.	1ryy	.	1ryy	.	.	1ryy	.	.	1ryy	.	1ryy	1ryy	.	1ryy	.	1ryy	.	1ryy	.	4ee\	.	1ryy	.
.	.	.	.	.	.	.	.	.	.	.	.	.	.	.	.	.	.	.	.	.	.	.	.	.	.	.	.	.	8r	.	.	.
.	.	.	.	.	.	.	.	.	.	.	.	.	.	.	.	.	.	.	.	.	.	.	.	.	.	.	.	.	8ee\	.	.	.
.	.	.	.	.	.	.	.	.	.	.	.	.	.	.	.	.	.	.	.	.	.	.	.	.	.	.	.	.	2dd\	.	.	.
=9	=9	=9	=9	=9	=9	=9	=9	=9	=9	=9	=9	=9	=9	=9	=9	=9	=9	=9	=9	=9	=9	=9	=9	=9	=9	=9	=9	=9	=9	=9	=9	=9
*tremolo	*	*tremolo	*	*tremolo	*	*	*	*	*	*	*	*	*	*	*	*	*	*	*	*	*	*	*	*	*	*	*	*	*	*	*	*
8c\L	.	8c\L	.	8c\L	.	16e/LL	.	16ee\LL	.	4C/	-um	4c\	-um	.	4g\	-um	.	4ee\	-um	8C/L	4cc\	.	4ee\	.	4cc\	.	4ee\	.	2ee\	.	2gg\	.
.	.	.	.	.	.	16g/	.	16dd#X\	.	.	.	.	.	.	.	.	.	.	.	.	.	.	.	.	.	.	.	.	.	.	.	.
8c\	.	8c\	.	8c\	.	16e/	.	16ff#X\	.	.	.	.	.	.	.	.	.	.	.	8C/J	.	.	.	.	.	.	.	.	.	.	.	.
.	.	.	.	.	.	16g/JJ	.	16ee\JJ	.	.	.	.	.	.	.	.	.	.	.	.	.	.	.	.	.	.	.	.	.	.	.	.
*	*	*	*	*	*	*rep	*	*	*	*	*	*	*	*	*	*	*	*	*	*	*	*	*	*	*	*	*	*	*	*	*	*
8c\	.	8c\	.	8c\	.	16e/LL	.	16dd#\LL	.	8c\	et	8c\	et	.	8g\	et	.	8ee\	et	4r	4r	.	4r	.	8r	.	8r	.	.	.	.	.
.	.	.	.	.	.	16g/	.	16ee\	.	.	.	.	.	.	.	.	.	.	.	.	.	.	.	.	.	.	.	.	.	.	.	.
8c\J	.	8c\J	.	8c\J	.	16e/	.	16gg\	.	8c\	in-	8c\	in-	.	8g\	in-	.	8ee\	in	.	.	.	.	.	8cc\	.	8ee\	.	.	.	.	.
.	.	.	.	.	.	16g/JJ	.	16ee\JJ	.	.	.	.	.	.	.	.	.	.	.	.	.	.	.	.	.	.	.	.	.	.	.	.
*	*	*	*	*	*	*Xrep	*	*	*	*	*	*	*	*	*	*	*	*	*	*	*	*	*	*	*2\right	*	*	*	*	*	*	*
*	*	*	*	*	*	*tremolo	*	*	*	*	*	*	*	*	*	*	*	*	*	*	*	*	*	*	*	*	*	*	*	*	*	*
8A\L	6\ 5	8A\L	.	8c\L	.	16f#X/LL	.	16ccc\LL	.	4.A\	-vi-	4.c\	-vi-	.	4.f#X\	-vi-	.	4.ee\	U-	2r	2r	.	2r	.	2cc\	.	2ee\	.	2cc\	.	2ee\	.
.	.	.	.	.	.	16f#/	.	16bb\	.	.	.	.	.	.	.	.	.	.	.	.	.	.	.	.	.	.	.	.	.	.	.	.
8A\	.	8A\	.	8c\	.	16f#/	.	16aa\	.	.	.	.	.	.	.	.	.	.	.	.	.	.	.	.	.	.	.	.	.	.	.	.
.	.	.	.	.	.	16f#/	.	16gg\JJ	.	.	.	.	.	.	.	.	.	.	.	.	.	.	.	.	.	.	.	.	.	.	.	.
8A\	.	8A\	.	8c\	.	16f#/	.	16ff#X\LL	.	.	.	.	.	.	.	.	.	.	.	.	.	.	.	.	.	.	.	.	.	.	.	.
.	.	.	.	.	.	16f#/	.	16ee\	.	.	.	.	.	.	.	.	.	.	.	.	.	.	.	.	.	.	.	.	.	.	.	.
!	!	!	!	!	!	!	!	!LO:SIC:v:s=16ddn\	!	!	!	!	!	!	!	!	!	!	!	!	!	!	!	!	!	!	!	!	!	!	!	!
8A\J	.	8A\J	.	8c\J	.	16f#/	.	16dd#\	.	8A\	-ſi-	8c\	-si-	.	8f#\	-si-	.	8ee\	-num	.	.	.	.	.	.	.	.	.	.	.	.	.
.	.	.	.	.	.	16f#/JJ	.	16cc\JJ	.	.	.	.	.	.	.	.	.	.	.	.	.	.	.	.	.	.	.	.	.	.	.	.
!	!	!	!	!	!	!	!	!LO:LB:g=original	!	!	!	!	!	!	!	!	!	!	!	!	!	!	!	!	!	!	!LO:LB:g=original	!	!	!	!	!
=10	=10	=10	=10	=10	=10	=10	=10	=10	=10	=10	=10	=10	=10	=10	=10	=10	=10	=10	=10	=10	=10	=10	=10	=10	=10	=10	=10	=10	=10	=10	=10	=10
!	!	!	!	!	!	!LO:SIC:v:s=16f#/LL	!	!	!	!	!	!	!	!	!LO:SIC:v:s=4f#\	!	!	!	!	!	!	!	!	!	!	!	!	!	!	!	!	!
8B\L	.	8B\L	.	8B/L	.	16f/LL	.	16cc#X\LL	.	4B\	-bi-	4B\	-bi-	.	4f\	-bi-	.	4dd\	Do-	00r	0r	.	0r	.	2dd\	.	2dd\	.	2b\	.	2dd\	.
!	!	!	!	!	!	!LO:SIC:v:s=16f#/	!	!	!	!	!	!	!	!	!	!	!	!	!	!	!	!	!	!	!	!	!	!	!	!	!	!
.	.	.	.	.	.	16f/	.	16dd\	.	.	.	.	.	.	.	.	.	.	.	.	.	.	.	.	.	.	.	.	.	.	.	.
!	!	!	!	!	!	!LO:SIC:v:s=16f#/	!	!	!	!	!	!	!	!	!	!	!	!	!	!	!	!	!	!	!	!	!	!	!	!	!	!
8B\	.	8B\	.	8B/	.	16f/	.	16ee\	.	.	.	.	.	.	.	.	.	.	.	.	.	.	.	.	.	.	.	.	.	.	.	.
!	!	!	!	!	!	!LO:SIC:v:s=16f#/	!	!	!	!	!	!	!	!	!	!	!	!	!	!	!	!	!	!	!	!	!	!	!	!	!	!
.	.	.	.	.	.	16f/	.	16dd\JJ	.	.	.	.	.	.	.	.	.	.	.	.	.	.	.	.	.	.	.	.	.	.	.	.
!	!	!	!	!	!	!LO:SIC:v:s=16f#/	!	!	!	!	!	!	!	!	!LO:SIC:v:s=8f#\	!	!	!	!	!	!	!	!	!	!	!	!	!	!	!	!	!
8B\	.	8B\	.	8B/	.	16f/	.	16cc#\LL	.	8B\	-li-	8B\	-li-	.	8f\	-li-	.	8dd\	-mi-	.	.	.	.	.	.	.	.	.	.	.	.	.
!	!	!	!	!	!	!LO:SIC:v:s=16f#/	!	!	!	!	!	!	!	!	!	!	!	!	!	!	!	!	!	!	!	!	!	!	!	!	!	!
.	.	.	.	.	.	16f/	.	16dd\	.	.	.	.	.	.	.	.	.	.	.	.	.	.	.	.	.	.	.	.	.	.	.	.
!	!	!	!	!	!	!LO:SIC:v:s=16f#/	!	!	!	!	!	!	!	!	!LO:SIC:v:s=8f#\	!	!	!	!	!	!	!	!	!	!	!	!	!	!	!	!	!
8B\J	.	8B\J	.	8B/J	.	16f/	.	16ff#X\	.	8B\	-um	8B\	-um	.	8f\	-um	.	8dd\	-num	.	.	.	.	.	.	.	.	.	.	.	.	.
!	!	!	!	!	!	!LO:SIC:v:s=16f#/JJ	!	!	!	!	!	!	!	!	!	!	!	!	!	!	!	!	!	!	!	!	!	!	!	!	!	!
.	.	.	.	.	.	16f/JJ	.	16dd\JJ	.	.	.	.	.	.	.	.	.	.	.	.	.	.	.	.	.	.	.	.	.	.	.	.
*	*	*	*	*	*	*	*	*	*	*	*	*	*	*	*	*	*	*	*	*	*	*	*	*	*custos:g	*	*	*	*	*	*	*
!	!	!	!	!	!	!	!	!	!	!	!	!	!	!	!	!	!	!	!	!	!	!	!	!	!LO:LB:g=original	!	!	!	!	!	!	!
8G\L	6 5	8G\L	.	8B/L	.	16e/LL	.	16bb\LL	.	4.G\	et	4.B\	et	.	4.e\	Et	.	4.dd\	Je-	.	.	.	.	.	2g/	.	2dd\	.	2b\	.	2dd\	.
.	.	.	.	.	.	16e/	.	16aa\	.	.	.	.	.	.	.	.	.	.	.	.	.	.	.	.	.	.	.	.	.	.	.	.
8G\	.	8G\	.	8B/	.	16e/	.	16gg\	.	.	.	.	.	.	.	.	.	.	.	.	.	.	.	.	.	.	.	.	.	.	.	.
.	.	.	.	.	.	16e/	.	16ff#\JJ	.	.	.	.	.	.	.	.	.	.	.	.	.	.	.	.	.	.	.	.	.	.	.	.
8G\	.	8G\	.	8B/	.	16e/	.	16ee\LL	.	.	.	.	.	.	.	.	.	.	.	.	.	.	.	.	.	.	.	.	.	.	.	.
.	.	.	.	.	.	16e/	.	16dd\	.	.	.	.	.	.	.	.	.	.	.	.	.	.	.	.	.	.	.	.	.	.	.	.
!	!	!	!	!	!	!	!	!LO:SIC:v:s=16ccn\	!	!	!	!	!	!	!	!	!	!	!	!	!	!	!	!	!	!	!	!	!	!	!	!
8G\J	.	8G\J	.	8B/J	.	16e/	.	16cc#\	.	8G\	in	8B\	in	.	8e\	in	.	8dd\	-sum	.	.	.	.	.	.	.	.	.	.	.	.	.
.	.	.	.	.	.	16e/JJ	.	16b\JJ	.	.	.	.	.	.	.	.	.	.	.	.	.	.	.	.	.	.	.	.	.	.	.	.
!	!	!	!	!	!	!	!	!	!	!	!	!	!	!	!	!	!	!	!	!	!	!	!	!	!	!	!	!	!	!	!LO:LB:g=original	!
=11	=11	=11	=11	=11	=11	=11	=11	=11	=11	=11	=11	=11	=11	=11	=11	=11	=11	=11	=11	=11	=11	=11	=11	=11	=11	=11	=11	=11	=11	=11	=11	=11
8A\L	.	8A\L	.	8A/L	.	16e/LL	.	16b\LL	.	4A\	U-	4A\	U-	.	4e\	U-	.	4cc\	(Chris)-	.	.	.	.	.	4cc\	.	4cc\	.	2a/	.	2cc\	.
.	.	.	.	.	.	16e/	.	16cc\	.	.	.	.	.	.	.	.	.	.	.	.	.	.	.	.	.	.	.	.	.	.	.	.
8A\	.	8A\	.	8A/	.	16e/	.	16dd\	.	.	.	.	.	.	.	.	.	.	.	.	.	.	.	.	.	.	.	.	.	.	.	.
.	.	.	.	.	.	16e/	.	16cc\JJ	.	.	.	.	.	.	.	.	.	.	.	.	.	.	.	.	.	.	.	.	.	.	.	.
8A\	.	8A\	.	8A/	.	16e/	.	16b\LL	.	4A\	-num	4A\	-num	.	4e\	-num	.	4cc\	-tum	.	.	.	.	.	4cc\	.	4ee\	.	.	.	.	.
.	.	.	.	.	.	16e/	.	16cc\	.	.	.	.	.	.	.	.	.	.	.	.	.	.	.	.	.	.	.	.	.	.	.	.
8A\J	.	8A\J	.	8A/J	.	16e/	.	16ff#X\	.	.	.	.	.	.	.	.	.	.	.	.	.	.	.	.	.	.	.	.	.	.	.	.
.	.	.	.	.	.	16e/JJ	.	16gg\JJ	.	.	.	.	.	.	.	.	.	.	.	.	.	.	.	.	.	.	.	.	.	.	.	.
!	!	!	!	!	!	!	!	!	!	!	!	!	!	!	!	!	!	!LO:LB:g=original	!	!	!	!	!	!	!	!	!	!	!	!	!	!
8F#X\L	6 5	8F#X\L	.	8A/L	.	16d/LL	.	16aa\LL	.	4F#X\	Do-	4d\	D(o-	.	4a\	Do-	.	4cc\	Fi-	.	.	.	.	.	2dd\	.	2dd\	.	2cc\	.	2aa\	.
.	.	.	.	.	.	16d/	.	16gg\	.	.	.	.	.	.	.	.	.	.	.	.	.	.	.	.	.	.	.	.	.	.	.	.
8F#\	.	8F#\	.	8A/	.	16d/	.	16ff#X\	.	.	.	.	.	.	.	.	.	.	.	.	.	.	.	.	.	.	.	.	.	.	.	.
.	.	.	.	.	.	16d/	.	16ee\JJ	.	.	.	.	.	.	.	.	.	.	.	.	.	.	.	.	.	.	.	.	.	.	.	.
8F#\	.	8F#\	.	8A/	.	16d/	.	16dd\LL	.	8F#\	-mi-	8d\	-mi)-	.	8a\	-mi-	.	8cc\	-li-	.	.	.	.	.	.	.	.	.	.	.	.	.
.	.	.	.	.	.	16d/	.	16cc\	.	.	.	.	.	.	.	.	.	.	.	.	.	.	.	.	.	.	.	.	.	.	.	.
8F#\J	.	8F#\J	.	8A/J	.	16d/	.	16b\	.	8F#\	-num	8d\	-num	.	8a\	-num	.	8cc\	-um	.	.	.	.	.	.	.	.	.	.	.	.	.
.	.	.	.	.	.	16d/JJ	.	16a\JJ	.	.	.	.	.	.	.	.	.	.	.	.	.	.	.	.	.	.	.	.	.	.	.	.
*Xtremolo	*	*Xtremolo	*	*Xtremolo	*	*Xtremolo	*	*	*	*custos:G	*	*	*	*	*	*	*	*	*	*	*	*	*	*	*	*	*	*	*	*	*	*
!	!	!	!	!	!	!	!	!	!	!LO:LB:g=original	!	!LO:LB:g=original	!	!	!	!	!	!	!	!	!LO:LB:g=original	!	!LO:LB:g=original	!	!	!	!	!	!	!	!	!
=12	=12	=12	=12	=12	=12	=12	=12	=12	=12	=12	=12	=12	=12	=12	=12	=12	=12	=12	=12	=12	=12	=12	=12	=12	=12	=12	=12	=12	=12	=12	=12	=12
!	!	!	!	!LO:TX:t=P:problem:mixed beam	!	!	!	!	!	!	!	!	!	!	!	!	!	!	!	!	!	!	!	!	!	!	!	!	!	!	!	!
4G\	.	4G\	.	8G/L	.	16d/LL	.	16b\LL	.	8G\	Je-	8d\	Je-	.	8g\	Je-	.	8b\	De-	.	4g/	.	4dd\	.	8g/L	.	8dd\L	.	4b\	.	4gg\	.
.	.	.	.	.	.	16b/	.	16dd\	.	.	.	.	.	.	.	.	.	.	.	.	.	.	.	.	.	.	.	.	.	.	.	.
.	.	.	.	8g\J	.	16d/	.	16ee\	.	8G\	-sum	8d\	-sum	.	8g\	-ſum	.	8b\	-i	.	.	.	.	.	16g/L	.	16dd\L	.	.	.	.	.
.	.	.	.	.	.	16b/JJ	.	16dd\JJ	.	.	.	.	.	.	.	.	.	.	.	.	.	.	.	.	16g/JJ	.	16dd\JJ	.	.	.	.	.
*	*	*	*	*	*	*rep	*	*	*	*	*	*	*	*	*	*	*	*	*	*	*2\right	*	*	*	*	*	*	*	*	*	*	*
!	!	!	!	!	!	!	!	!	!	!	!	!	!	!	!LO:PB:g=original	!	!	!	!	!	!	!	!	!	!	!	!	!	!	!	!	!
8r	.	8r	.	8r	.	16d/LL	.	16gg\LL	.	8G\	(Chris)-	8d\	(Chris)-	.	8g\	Chriſ-	.	8b\	U-	.	8r	.	8r	.	8g/L	.	8dd\L	.	8r	.	8r	.
.	.	.	.	.	.	16b/	.	16ff#X\	.	.	.	.	.	.	.	.	.	.	.	.	.	.	.	.	.	.	.	.	.	.	.	.
8G\	.	8G\	.	8g\	.	16d/	.	16ee\	.	8G\	-tum	8d\	-tum	.	8g\	-tum	.	8b\	-ni-	.	8g/	.	8dd\	.	8g/J	.	8dd\J	.	8b\	.	8dd\	.
.	.	.	.	.	.	16b/JJ	.	16dd\JJ	.	.	.	.	.	.	.	.	.	.	.	.	.	.	.	.	.	.	.	.	.	.	.	.
*	*	*	*	*	*	*Xrep	*	*	*	*	*	*	*	*	*	*	*	*	*	*	*tremolo	*	*tremolo	*	*	*	*	*	*	*	*	*
8F#X\L	6 5	8F#X\L	.	8f#X\L	.	16d/LL	.	16cc#X\LL	.	4F#X\	Fi-	4d\	Fi-	.	4a\	Fi-	.	4cc\	-ge-	.	8dd\L	.	8dd\L	.	2dd\	.	2dd\	.	2a/	.	2dd\	.
.	.	.	.	.	.	16a/	.	16dd\	.	.	.	.	.	.	.	.	.	.	.	.	.	.	.	.	.	.	.	.	.	.	.	.
8D\	.	8D\	.	8d\	.	16d/	.	16ee\	.	.	.	.	.	.	.	.	.	.	.	.	8dd\	.	8dd\	.	.	.	.	.	.	.	.	.
.	.	.	.	.	.	16a/JJ	.	16dd\JJ	.	.	.	.	.	.	.	.	.	.	.	.	.	.	.	.	.	.	.	.	.	.	.	.
*	*	*	*	*	*	*rep	*	*	*	*	*	*	*	*	*	*	*	*	*	*	*	*	*	*	*	*	*	*	*	*	*	*
8F#\	_	8F#\	.	8f#\	.	16d/LL	.	16a\LL	.	8D\	-li-	8d\	-li-	.	8a\	-li-	.	8cc\	-ni-	.	8dd\	.	8dd\	.	.	.	.	.	.	.	.	.
.	.	.	.	.	.	16a/	.	16b\	.	.	.	.	.	.	.	.	.	.	.	.	.	.	.	.	.	.	.	.	.	.	.	.
8D\J	X	8D\J	.	8d\J	.	16d/	.	16ccn\	.	8D\	-um	8d\	-um	.	8a\	-um	.	8cc\	-tum	.	8dd\J	.	8dd\J	.	.	.	.	.	.	.	.	.
.	.	.	.	.	.	16a/JJ	.	16a\JJ	.	.	.	.	.	.	.	.	.	.	.	.	.	.	.	.	.	.	.	.	.	.	.	.
*	*	*	*	*	*	*Xrep	*	*	*	*	*	*	*	*	*	*	*	*	*	*	*Xtremolo	*	*Xtremolo	*	*	*	*	*	*	*	*	*
=13	=13	=13	=13	=13	=13	=13	=13	=13	=13	=13	=13	=13	=13	=13	=13	=13	=13	=13	=13	=13	=13	=13	=13	=13	=13	=13	=13	=13	=13	=13	=13	=13
*	*	*	*	*	*	*	*	*	*	*	*	*	*	*	*	*	*	*	*ij	*	*	*	*	*	*	*	*	*	*	*	*	*
!	!	!	!	!LO:TX:t=P:problem:mixed beam	!	!	!	!	!	!	!	!	!	!	!	!	!	!	!	!	!	!	!	!	!	!	!	!	!	!	!	!
4G\	.	4G\	.	8g\L	.	16d/LL	.	16b\LL	.	8G\	De-	8d\	De-	.	8g\	De-	.	8b\	De-	.	4g/	.	4dd\	.	4g/	.	4dd\	.	4b\	.	4dd\	.
.	.	.	.	.	.	16b/	.	16dd\	.	.	.	.	.	.	.	.	.	.	.	.	.	.	.	.	.	.	.	.	.	.	.	.
.	.	.	.	8G/J	.	16d/	.	16ee\	.	8G\	-i	8d\	-i	.	8g\	-i	.	8b\	-i	.	.	.	.	.	.	.	.	.	.	.	.	.
.	.	.	.	.	.	16b/JJ	.	16dd\JJ	.	.	.	.	.	.	.	.	.	.	.	.	.	.	.	.	.	.	.	.	.	.	.	.
*	*	*	*	*	*	*rep	*	*	*	*	*	*	*	*	*	*	*	*	*	*	*	*	*	*	*	*	*	*	*	*	*	*
8r	.	8r	.	8r	.	16d/LL	.	16gg\LL	.	8G\	U-	8d\	U-	.	8g\	U-	.	8b\	U-	.	8r	.	8r	.	8r	.	8r	.	8r	.	8r	.
.	.	.	.	.	.	16b/	.	16dd\	.	.	.	.	.	.	.	.	.	.	.	.	.	.	.	.	.	.	.	.	.	.	.	.
8G\	.	8G\	.	8g\	.	16d/	.	16b\	.	8G\	-ni-	8d\	-ni-	.	8g\	-ni-	.	8b\	-ni-	.	8g/	.	8dd\	.	8g/	.	8dd\	.	8b\	.	8dd\	.
.	.	.	.	.	.	16b/JJ	.	16g\JJ	.	.	.	.	.	.	.	.	.	.	.	.	.	.	.	.	.	.	.	.	.	.	.	.
*	*	*	*	*	*	*Xrep	*	*	*	*	*	*	*	*	*	*	*	*	*	*	*tremolo	*	*tremolo	*	*	*	*tremolo	*	*tremolo	*	*tremolo	*
8F#X\L	6 5	8F#X\L	.	8f#X\L	.	16d/LL	.	16cc#X\LL	.	4D\	-ge-	4d\	-ge-	.	4a\	-ge-	.	4cc\	-ge-	.	8dd\L	.	8dd\L	.	2dd\	.	8dd\L	.	8a/L	.	8dd\L	.
.	.	.	.	.	.	16a/	.	16dd\	.	.	.	.	.	.	.	.	.	.	.	.	.	.	.	.	.	.	.	.	.	.	.	.
8D\	.	8D\	.	8d\	.	16d/	.	16ee\	.	.	.	.	.	.	.	.	.	.	.	.	8dd\	.	8dd\	.	.	.	8dd\	.	8a/	.	8dd\	.
.	.	.	.	.	.	16a/JJ	.	16dd\JJ	.	.	.	.	.	.	.	.	.	.	.	.	.	.	.	.	.	.	.	.	.	.	.	.
*	*	*	*	*	*	*rep	*	*	*	*	*	*	*	*	*	*	*	*	*	*	*	*	*	*	*	*	*	*	*	*	*	*
!	!	!	!	!	!	!	!	!LO:LB:g=original	!	!	!	!	!	!	!	!	!	!	!	!	!	!	!	!	!	!	!	!	!	!	!	!
8F#\	_	8F#\	.	8f#\	.	16d/LL	.	16a\LL	.	8D\	-ni-	8d\	-ni-	.	8a\	-ni-	.	8cc\	-ni-	.	8dd\	.	8dd\	.	.	.	8dd\	.	8a/	.	8dd\	.
.	.	.	.	.	.	16a/	.	16b\	.	.	.	.	.	.	.	.	.	.	.	.	.	.	.	.	.	.	.	.	.	.	.	.
8D\J	X	8D\J	.	8d\J	.	16d/	.	16ccn\	.	8D\	-tum	8d\	-tum	.	8a\	-tum	.	8cc\	-tum	.	8dd\J	.	8dd\J	.	.	.	8dd\J	.	8a/J	.	8dd\J	.
.	.	.	.	.	.	16a/JJ	.	16a\JJ	.	.	.	.	.	.	.	.	.	.	.	.	.	.	.	.	.	.	.	.	.	.	.	.
*	*	*	*	*	*	*Xrep	*	*	*	*	*	*	*	*	*	*	*	*	*Xij	*	*Xtremolo	*	*Xtremolo	*	*	*	*Xtremolo	*	*Xtremolo	*	*Xtremolo	*
!	!	!	!	!	!	!LO:LB:g=original	!	!	!	!	!	!	!	!	!	!	!	!	!	!	!	!	!	!	!	!	!	!	!	!	!	!
=14	=14	=14	=14	=14	=14	=14	=14	=14	=14	=14	=14	=14	=14	=14	=14	=14	=14	=14	=14	=14	=14	=14	=14	=14	=14	=14	=14	=14	=14	=14	=14	=14
*	*	*	*	*	*	*	*	*	*	*	*	*	*	*	*	*	*	*	*	*tremolo	*	*	*	*	*tremolo	*	*	*	*	*	*	*
8G\L	8_ 3	8G\L	.	8g\L	.	8b\L	.	16b\LL	.	8G\	et	8d\	et	.	8g\	et	.	8b\	et	8GG/L	8g/L	.	8g/L	.	8g/L	.	8dd\L	.	8b\L	.	8dd\L	.
.	.	.	.	.	.	.	.	16dd\	.	.	.	.	.	.	.	.	.	.	.	.	.	.	.	.	.	.	.	.	.	.	.	.
8A\	_ 3	8A\	.	8a\	.	8cc\	.	16cc\	.	8A\	ex	8c\	ex	.	8g\	ex	.	8cc\	ex	8GG/	16g/L	.	16g/L	.	8g/	.	8cc\	.	8cc\	.	8gg\	.
.	.	.	.	.	.	.	.	16ee\JJ	.	.	.	.	.	.	.	.	.	.	.	.	16g/JJ	.	16g/JJ	.	.	.	.	.	.	.	.	.
8B\	_ 3	8B\	.	8b\	.	8dd\	.	16dd\LL	.	8B\	Pa-	8d\	Pa-	.	8g\	Pa-	.	8dd\	Pa-	8GG/	8g/L	.	8g/L	.	8g/	.	8dd\	.	8dd\	.	8gg\	.
.	.	.	.	.	.	.	.	16gg\	.	.	.	.	.	.	.	.	.	.	.	.	.	.	.	.	.	.	.	.	.	.	.	.
8c\J	_ 3	8c\J	.	8cc\J	.	8ee\J	.	16ee\	.	8c\	-tre	8c\	-tre	.	8g\	-tre	.	8ee\	-tre	8GG/J	8g/J	.	8g/J	.	8g/J	.	8ee\J	.	8ee\J	.	8gg\J	.
.	.	.	.	.	.	.	.	16gg\JJ	.	.	.	.	.	.	.	.	.	.	.	.	.	.	.	.	.	.	.	.	.	.	.	.
*	*	*	*	*	*	*	*	*	*	*	*	*	*	*	*	*	*	*	*	*	*tremolo	*	*tremolo	*	*	*	*	*	*	*	*tremolo	*
8B\L	6 3	8B\L	.	8b\L	.	8dd\L	.	16dd\LL	.	8B\L	na-	8d\L	na-	.	4g\	na-	.	8dd\L	na-	8GG/L	8g/L	.	8g/L	.	8g/L	.	8dd\L	.	8dd\L	.	8gg\L	.
.	.	.	.	.	.	.	.	16gg\	.	.	.	.	.	.	.	.	.	.	.	.	.	.	.	.	.	.	.	.	.	.	.	.
8c\	3	8c\	.	8cc\	.	8ee\J	.	16ee\	.	8c\J	.	8c\J	.	.	.	.	.	8ee\J	.	8GG/	8g/	.	8g/	.	8g/	.	8ee\	.	8ee\	.	8gg\	.
.	.	.	.	.	.	.	.	16gg\JJ	.	.	.	.	.	.	.	.	.	.	.	.	.	.	.	.	.	.	.	.	.	.	.	.
8B\	6	8B\	.	8b\	.	16dd\LL	.	16dd\LL	.	8B\	.	4d\	-tum	.	4g\	-tum	.	4dd\	-tum	8GG/	8g/	.	8g/	.	8g/	.	8dd\	.	8dd\	.	8gg\	.
.	.	.	.	.	.	16gg\	.	16gg\	.	.	.	.	.	.	.	.	.	.	.	.	.	.	.	.	.	.	.	.	.	.	.	.
8G\J	7	8G\J	.	8g\J	.	16dd\	.	16dd\	.	8G\	-tum	.	.	.	.	.	.	.	.	8GG/J	8g/J	.	8g/J	.	8g/J	.	8dd\J	.	8ff\J	.	8gg\J	.
.	.	.	.	.	.	16ffn\JJ	.	16ffn\JJ	.	.	.	.	.	.	.	.	.	.	.	.	.	.	.	.	.	.	.	.	.	.	.	.
*	*	*custos:c	*	*	*	*	*	*	*	*	*	*	*	*	*	*	*	*	*	*Xtremolo	*Xtremolo	*	*Xtremolo	*	*Xtremolo	*	*	*	*	*	*Xtremolo	*
!	!	!LO:LB:g=original	!	!	!	!	!	!	!	!	!	!	!	!	!	!	!	!LO:LB:g=original	!	!	!	!	!	!	!	!	!	!	!	!	!	!
=15	=15	=15	=15	=15	=15	=15	=15	=15	=15	=15	=15	=15	=15	=15	=15	=15	=15	=15	=15	=15	=15	=15	=15	=15	=15	=15	=15	=15	=15	=15	=15	=15
8c\L	.	8c\L	.	8g\L	.	16ee\LL	.	16ee\LL	.	8c\L	An-	8c\L	an-	.	4.g\	An-	.	8ee\L	An-	8C/	4g/	.	4g/	.	8cc\	.	8ee\	.	8ee\L	.	8gg\L	.
.	.	.	.	.	.	16gg\	.	16gg\	.	.	.	.	.	.	.	.	.	.	.	.	.	.	.	.	.	.	.	.	.	.	.	.
8B\	6 3	8B\	.	8g\	.	16dd\	.	16dd\	.	8B\J	.	8d\	.	.	.	.	.	8dd\	.	8r	.	.	.	.	8r	.	8r	.	8ff\	.	8gg\	.
.	.	.	.	.	.	16ff\JJ	.	16ff#\JJ	.	.	.	.	.	.	.	.	.	.	.	.	.	.	.	.	.	.	.	.	.	.	.	.
8c\	.	8c\	.	8g\	.	16ee\LL	.	16ee\LL	.	8c\	.	8c\J	.	.	.	.	.	8ee\J	.	4r	4r	.	4r	.	4r	.	4r	.	8ee\	.	8gg\	.
.	.	.	.	.	.	16gg\	.	16gg\	.	.	.	.	.	.	.	.	.	.	.	.	.	.	.	.	.	.	.	.	.	.	.	.
8d\J	6	8d\J	.	8g\J	.	16b\	.	16b\	.	8G\	-te	8d\	-te	.	8g\	-te	.	8dd\	-te	.	.	.	.	.	.	.	.	.	8b\J	.	8gg\J	.
.	.	.	.	.	.	16dd\JJ	.	16dd\JJ	.	.	.	.	.	.	.	.	.	.	.	.	.	.	.	.	.	.	.	.	.	.	.	.
!	!	!	!	!	!	!	!	!	!	!LO:LB:g=original	!	!	!	!	!	!	!	!	!	!	!	!	!	!	!	!	!	!	!	!	!	!
8e\L	6	8e\L	.	8g\L	.	16cc\LL	.	16cc\LL	.	8E\L	An-	8c\	An-	.	8g\L	Om-	.	8cc\L	Om-	2r	2r	.	2r	.	2r	.	2r	.	8cc\L	.	8gg\L	.
.	.	.	.	.	.	16ee\	.	16ee\	.	.	.	.	.	.	.	.	.	.	.	.	.	.	.	.	.	.	.	.	.	.	.	.
8d\	4| 2	8d\	.	8e\	.	16g#X\	.	16g#X\	.	8D\J	.	4e\	.	.	8g#X\	.	.	8b\	.	.	.	.	.	.	.	.	.	.	8b\	.	8ee\	.
.	.	.	.	.	.	16b\JJ	.	16b\JJ	.	.	.	.	.	.	.	.	.	.	.	.	.	.	.	.	.	.	.	.	.	.	.	.
!	!	!	!	!	!	!	!	!LO:TX:t=P:problem:mixed beam	!	!	!	!	!	!	!	!	!	!	!	!	!	!	!	!	!	!	!	!	!	!	!	!
8c\	6	8c\	.	8e\	.	16a\LL	.	16a\LL	.	8C/	.	.	.	.	8a\	.	.	8cc\	.	.	.	.	.	.	.	.	.	.	8cc\	.	8ee\	.
.	.	.	.	.	.	16cc\	.	16ee\	.	.	.	.	.	.	.	.	.	.	.	.	.	.	.	.	.	.	.	.	.	.	.	.
8B\J	6\	8B\J	.	8e\J	.	16g#\	.	16e/	.	8BB/	-te	8e\	-te	.	8g#\J	.	.	8b\J	.	.	.	.	.	.	.	.	.	.	8a\J	.	8ee\J	.
.	.	.	.	.	.	16b\JJ	.	16g#X/JJ	.	.	.	.	.	.	.	.	.	.	.	.	.	.	.	.	.	.	.	.	.	.	.	.
!LO:LB:g=original	!	!	!	!	!	!	!	!	!	!	!	!	!	!	!	!	!	!	!	!	!	!	!	!	!	!	!	!	!	!	!	!
=16	=16	=16	=16	=16	=16	=16	=16	=16	=16	=16	=16	=16	=16	=16	=16	=16	=16	=16	=16	=16	=16	=16	=16	=16	=16	=16	=16	=16	=16	=16	=16	=16
!	!	!	!	!	!	!	!	!	!	!	!	!	!	!	!	!	!	!	!	!LO:TX:b:t=Pauſ	!	!	!	!	!	!	!	!	!	!	!	!
!	!	!	!	!LO:TX:t=P:problem:mixed beam	!	!	!	!LO:TX:t=P:problem:mixed beam	!	!	!	!	!	!	!	!	!	!	!	!LO:TX:a:t=19	!	!	!	!	!	!	!	!	!	!	!	!
8c\L	6	8c\L	.	8e\L	.	8a/L	.	16a\LL	.	8C/L	O-	4e\	Om-	.	8a\L	.	.	4a\	.	1r	2r	.	2r	.	4r	.	4r	.	8a/L	.	8ee\L	.
.	.	.	.	.	.	.	.	16ee\	.	.	.	.	.	.	.	.	.	.	.	.	.	.	.	.	.	.	.	.	.	.	.	.
8c#X\	6 5	8c#X\	.	8A/	.	16e/L	.	16e/	.	8C#X/J	.	.	.	.	8gn\J	.	.	.	.	.	.	.	.	.	.	.	.	.	8a/	.	8gg\	.
.	.	.	.	.	.	16g/JJ	.	16gn/JJ	.	.	.	.	.	.	.	.	.	.	.	.	.	.	.	.	.	.	.	.	.	.	.	.
!	!	!	!	!	!	!	!	!	!	!	!	!LO:LB:g=original	!	!	!	!	!	!	!	!	!	!	!	!	!	!	!	!	!	!	!	!
8d\	#	8d\	.	8A/	.	16f#X/LL	.	16f#X\LL	.	8D\	-mni-	8d\	-ni-	.	8f#X\	-[[m]]ni-	.	8a\	-[[m]]ni-	.	.	.	.	.	8r	.	8r	.	8a/	.	8ff#X\	.
.	.	.	.	.	.	16a/	.	16a\	.	.	.	.	.	.	.	.	.	.	.	.	.	.	.	.	.	.	.	.	.	.	.	.
8F#X\J	6 5	8F#X\J	.	8d/J	.	16dd/	.	16dd\	.	8F#X\	-a	8d\	-a	.	8a\	-a	.	8a\	-a	.	.	.	.	.	8dd\	.	8dd\	.	8dd/J	.	8aa\J	.
.	.	.	.	.	.	16cc/JJ	.	16cc\JJ	.	.	.	.	.	.	.	.	.	.	.	.	.	.	.	.	.	.	.	.	.	.	.	.
*	*	*	*	*	*	*	*	*	*	*	*ij	*	*	*	*	*	*	*	*	*	*	*	*	*	*	*	*	*	*	*	*tremolo	*
.	.	.	.	.	.	.	.	8qcc/	.	.	.	.	.	.	.	.	.	.	.	.	.	.	.	.	.	.	.	.	.	.	.	.
8G\L	.	8G\L	.	8g\L	.	16b/LL	.	8b\L	.	4G\	An-	4d\	an-	.	4g\	An-	.	4b\	an-	.	4g/	.	4g/	.	4g/	.	4dd\	.	4b\	.	8gg\L	.
.	.	.	.	.	.	16g/	.	.	.	.	.	.	.	.	.	.	.	.	.	.	.	.	.	.	.	.	.	.	.	.	.	.
8G\	.	8G\	.	8g\J	.	16g/	.	16a\L	.	.	.	.	.	.	.	.	.	.	.	.	.	.	.	.	.	.	.	.	.	.	8gg\	.
.	.	.	.	.	.	16g/JJ	.	16b\JJ	.	.	.	.	.	.	.	.	.	.	.	.	.	.	.	.	.	.	.	.	.	.	.	.
.	.	.	.	.	.	.	.	8qdd/	.	.	.	.	.	.	.	.	.	.	.	.	.	.	.	.	.	.	.	.	.	.	.	.
!	!	!	!	!LO:LB:g=original	!	!	!	!	!	!	!	!	!	!	!	!	!	!	!	!	!	!	!	!	!	!	!	!	!	!	!	!
8E\	6	8E\	.	8e\L	.	16g/LL	.	8cc\L	.	4E\	-te	4c\	-te	.	4g\	-te	.	4cc\	-te	.	4g/	.	4g/	.	4cc\	.	4cc\	.	4cc\	.	8gg\	.
.	.	.	.	.	.	16g/	.	.	.	.	.	.	.	.	.	.	.	.	.	.	.	.	.	.	.	.	.	.	.	.	.	.
8E\J	.	8E\J	.	8e\J	.	16g/	.	16b\L	.	.	.	.	.	.	.	.	.	.	.	.	.	.	.	.	.	.	.	.	.	.	8gg\J	.
.	.	.	.	.	.	16g/JJ	.	16cc\JJ	.	.	.	.	.	.	.	.	.	.	.	.	.	.	.	.	.	.	.	.	.	.	.	.
*	*	*	*	*	*	*	*	*	*	*	*	*	*	*	*	*	*	*	*	*	*	*	*	*	*	*	*	*	*	*	*Xtremolo	*
!	!	!	!	!	!	!	!	!	!	!	!	!	!	!	!LO:LB:g=original	!	!	!	!	!	!	!	!	!	!	!	!	!	!LO:LB:g=original	!	!	!
=17	=17	=17	=17	=17	=17	=17	=17	=17	=17	=17	=17	=17	=17	=17	=17	=17	=17	=17	=17	=17	=17	=17	=17	=17	=17	=17	=17	=17	=17	=17	=17	=17
*	*	*	*	*	*	*tremolo	*	*	*	*	*	*	*	*	*	*	*	*	*	*	*	*	*	*	*	*	*	*	*	*	*	*
8BB/L	6	8BB/L	.	8B/L	.	16g/LL	.	16dd\LL	.	4BB/	O-	4d\	om-	.	4g\	om-	.	4dd\	om-	1r	4g/	.	4g/	.	4g/	.	4dd\	.	4dd\	.	4gg\	.
.	.	.	.	.	.	16g/	.	16ee\	.	.	.	.	.	.	.	.	.	.	.	.	.	.	.	.	.	.	.	.	.	.	.	.
8BB/	.	8BB/	.	8B/	.	16g/	.	16ff#X\	.	.	.	.	.	.	.	.	.	.	.	.	.	.	.	.	.	.	.	.	.	.	.	.
.	.	.	.	.	.	16g/	.	16gg\JJ	.	.	.	.	.	.	.	.	.	.	.	.	.	.	.	.	.	.	.	.	.	.	.	.
8C/	3	8C/	.	8c/	.	16g/	.	16ff#\LL	.	8C/	-mni-	8c\	-ni-	.	8g\	-ni-	.	8ee\	-ni-	.	4r	.	4r	.	4cc\	.	4ee\	.	4ee\	.	4gg\	.
.	.	.	.	.	.	16g/	.	16ee\	.	.	.	.	.	.	.	.	.	.	.	.	.	.	.	.	.	.	.	.	.	.	.	.
!	!	!	!	!	!	!	!	!LO:TX:b:rj:i:t=Vertatur	!	!	!	!	!	!	!	!	!	!	!	!	!	!	!	!	!	!	!	!	!	!	!	!
8C/J	.	8C/J	.	8c/J	.	16g/	.	16dd\	.	8C/	-a	8e\	-a	.	8g\	-a	.	8cc\	-a	.	.	.	.	.	.	.	.	.	.	.	.	.
.	.	.	.	.	.	16g/JJ	.	16cc\JJ	.	.	.	.	.	.	.	.	.	.	.	.	.	.	.	.	.	.	.	.	.	.	.	.
*	*	*	*	*tremolo	*	*	*	*custos:b	*	*	*Xij	*	*	*	*	*	*	*	*	*	*tremolo	*	*tremolo	*	*tremolo	*	*tremolo	*	*	*	*	*
!LO:TX:t=P:problem:mixed beam	!	!LO:TX:t=P:problem:mixed beam	!	!	!	!	!	!LO:PB:g=original	!	!	!	!	!	!	!	!	!	!	!	!	!	!	!	!	!	!	!	!	!	!	!	!
8D\L	4	8D\L	.	8d\L	.	16g/LL	.	16b\LL	.	4.D\	Sae-	4.d\	Sae-	.	4g\	Sae-	.	4b\	Sae-	.	8dd\L	.	8dd\L	.	8dd\L	.	8dd\L	.	4b\	.	4gg\	.
.	.	.	.	.	.	16g/	.	16dd\	.	.	.	.	.	.	.	.	.	.	.	.	.	.	.	.	.	.	.	.	.	.	.	.
8D\	.	8D\	.	8d\	.	16g/	.	16g\	.	.	.	.	.	.	.	.	.	.	.	.	8dd\	.	8dd\	.	8dd\	.	8dd\	.	.	.	.	.
.	.	.	.	.	.	16g/JJ	.	16b\JJ	.	.	.	.	.	.	.	.	.	.	.	.	.	.	.	.	.	.	.	.	.	.	.	.
8DD/	#	8DD/	.	8d\	.	16f#X/LL	.	16a/LL	.	.	.	.	.	.	8f#X\	.	.	8a\	.	.	8dd\	.	8dd\	.	8dd\	.	8dd\	.	4a/	.	4ff#X\	.
.	.	.	.	.	.	16f#/	.	16cc/	.	.	.	.	.	.	.	.	.	.	.	.	.	.	.	.	.	.	.	.	.	.	.	.
8DD/J	.	8DD/J	.	8d\J	.	16f#/	.	16f#X/	.	8D\	-cu-	8d\	-cu-	.	8f#\	-cu-	.	8a\	-cu-	.	8dd\J	.	8dd\J	.	8dd\J	.	8dd\J	.	.	.	.	.
.	.	.	.	.	.	16f#/JJ	.	16a/JJ	.	.	.	.	.	.	.	.	.	.	.	.	.	.	.	.	.	.	.	.	.	.	.	.
*	*	*	*	*Xtremolo	*	*	*	*	*	*	*	*	*	*	*	*	*	*	*	*	*Xtremolo	*	*Xtremolo	*	*Xtremolo	*	*Xtremolo	*	*	*	*	*
=18	=18	=18	=18	=18	=18	=18	=18	=18	=18	=18	=18	=18	=18	=18	=18	=18	=18	=18	=18	=18	=18	=18	=18	=18	=18	=18	=18	=18	=18	=18	=18	=18
!	!	!	!	!	!	!	!	!LO:TX:t=P:problem:mixed beam	!	!	!	!	!	!	!	!	!	!	!	!	!	!	!	!	!	!	!	!	!	!	!	!
8GG/L	.	8GG/L	.	8d\L	.	16g/LL	.	16g/LL	.	4G\	-la	4d\	-la	.	4g\	-la	.	4b\	-la	1r	4g/	.	4dd\	.	4g/	.	4dd\	.	8b\L	.	2gg\	.
.	.	.	.	.	.	16g/	.	16gg\	.	.	.	.	.	.	.	.	.	.	.	.	.	.	.	.	.	.	.	.	.	.	.	.
8BB/	6	8BB/	.	8d\	.	16g/	.	16bb\	.	.	.	.	.	.	.	.	.	.	.	.	.	.	.	.	.	.	.	.	8dd\	.	.	.
.	.	.	.	.	.	16g/	.	16gg\JJ	.	.	.	.	.	.	.	.	.	.	.	.	.	.	.	.	.	.	.	.	.	.	.	.
8C/	.	8C/	.	8e\	.	16g/	.	16ff#X\LL	.	4r	.	4e\	Sae-	.	2g\	Sae-	.	4cc\	Sae-	.	4cc\	.	4ee\	.	4cc\	.	4ee\	.	8ee\	.	.	.
.	.	.	.	.	.	16g/	.	16ee\	.	.	.	.	.	.	.	.	.	.	.	.	.	.	.	.	.	.	.	.	.	.	.	.
8C/J	.	8C/J	.	8e\J	.	16g/	.	16dd\	.	.	.	.	.	.	.	.	.	.	.	.	.	.	.	.	.	.	.	.	8cc\J	.	.	.
.	.	.	.	.	.	16g/JJ	.	16cc\JJ	.	.	.	.	.	.	.	.	.	.	.	.	.	.	.	.	.	.	.	.	.	.	.	.
*	*	*	*	*tremolo	*	*Xtremolo	*	*	*	*	*ij	*	*	*	*	*	*	*	*	*	*tremolo	*	*tremolo	*	*tremolo	*	*tremolo	*	*	*	*	*
!LO:TX:t=P:problem:mixed beam	!	!LO:TX:t=P:problem:mixed beam	!	!	!	!	!	!	!	!	!	!	!	!	!	!	!	!	!	!	!	!	!	!	!	!	!	!	!	!	!	!
8D\L	6 4	8D\L	.	8d\L	.	16g/LL	.	16b\LL	.	4.D\	Sae-	4.d\	.	.	.	.	.	4b\	.	.	8dd\L	.	8dd\L	.	8dd\L	.	8dd\L	.	4b\	.	4gg\	.
.	.	.	.	.	.	16g/	.	16dd\	.	.	.	.	.	.	.	.	.	.	.	.	.	.	.	.	.	.	.	.	.	.	.	.
8D\	.	8D\	.	8d\	.	16b/	.	16gg\	.	.	.	.	.	.	.	.	.	.	.	.	8dd\	.	8dd\	.	8dd\	.	8dd\	.	.	.	.	.
.	.	.	.	.	.	16b/JJ	.	16b\JJ	.	.	.	.	.	.	.	.	.	.	.	.	.	.	.	.	.	.	.	.	.	.	.	.
!LO:TX:t=P:problem:wykreślone cyfry: 5 3 w basso continuo	!	!	!	!	!	!	!	!	!	!	!	!	!	!	!	!	!	!	!	!	!	!	!	!	!	!	!	!	!	!	!	!
8DD/	.	8DD/	.	8d\	.	16a/LL	.	16a\LL	.	.	.	.	.	.	8f#X\	.	.	8a\	.	.	8dd\	.	8dd\	.	8dd\	.	8dd\	.	4a\	.	4ff#X\	.
!	!	!	!	!	!	!	!	!LO:TX:t=P:problem:#d poporawiony na #f	!	!	!	!	!	!	!	!	!	!	!	!	!	!	!	!	!	!	!	!	!	!	!	!
.	.	.	.	.	.	16a/	.	16dd\	.	.	.	.	.	.	.	.	.	.	.	.	.	.	.	.	.	.	.	.	.	.	.	.
!	!	!	!	!	!	!	!	!LO:TX:t=P:problem:LO:N:acc:back=1	!	!	!	!	!	!	!	!	!	!	!	!	!	!	!	!	!	!	!	!	!	!	!	!
8DD/J	.	8DD/J	.	8d\J	.	16a/	.	16ff#X\	.	8D\	-cu-	8d\	-cu-	.	8f#\	-cu-	.	8a\	-cu-	.	8dd\J	.	8dd\J	.	8dd\J	.	8dd\J	.	.	.	.	.
.	.	.	.	.	.	16a/JJ	.	16a\JJ	.	.	.	.	.	.	.	.	.	.	.	.	.	.	.	.	.	.	.	.	.	.	.	.
*	*	*	*	*Xtremolo	*	*	*	*	*	*	*	*	*	*	*	*	*	*	*	*	*Xtremolo	*	*Xtremolo	*	*Xtremolo	*	*Xtremolo	*	*	*	*	*
!	!	!	!	!	!	!LO:LB:g=original	!	!	!	!	!	!	!	!	!	!	!	!	!	!	!	!	!	!	!	!	!	!	!	!	!	!
=19	=19	=19	=19	=19	=19	=19	=19	=19	=19	=19	=19	=19	=19	=19	=19	=19	=19	=19	=19	=19	=19	=19	=19	=19	=19	=19	=19	=19	=19	=19	=19	=19
!LO:TX:a:i:t=Solo	!	!	!	!	!	!	!	!	!LO:DY:a	!	!	!LO:TX:a:t=Solo	!	!	!	!	!	!	!	!	!	!	!	!	!	!	!	!	!	!	!	!
4GG/	.	4GG/	.	8d\	.	8b\	.	8gg\L	.	4G\	-la	8d\	-la	.	8g\	-la	.	8b\	-la	1r	4g/	.	4dd\	.	4g/	.	4dd\	.	4b\	.	4gg\	.
!	!	!	!	!	!	!	!	!	!LO:DY:a:t=p.	!	!	!	!	!	!	!	!	!	!	!	!	!	!	!	!	!	!	!	!	!	!	!
.	.	.	.	8r	.	8r	.	8dd\	p	.	.	8d\	De-	.	8r	.	.	8r	.	.	.	.	.	.	.	.	.	.	.	.	.	.
4r	.	4r	.	4r	.	4r	.	8dd\	.	4r	.	8d\	-um	.	4r	.	.	4r	.	.	4r	.	4r	.	4r	.	4r	.	4r	.	4r	.
!	!	!	!	!	!	!	!	!	!	!	!	!LO:TX:t=P:problem:wykreślona kreska taktowa	!	!	!	!	!	!	!	!	!	!	!	!	!	!	!	!	!	!	!	!
.	.	.	.	.	.	.	.	8dd\J	.	.	.	8d\	de	.	.	.	.	.	.	.	.	.	.	.	.	.	.	.	.	.	.	.
*	*	*	*	*	*	*	*	*	*	*	*Xij	*2\right	*	*	*	*	*	*	*	*	*	*	*	*	*	*	*	*	*	*	*	*
!	!	!	!	!	!	!	!LO:DY:a:t=p.	!	!	!	!	!	!	!	!	!	!	!	!	!	!	!	!	!	!	!	!	!	!	!	!	!
8r	.	8r	.	8r	.	8r	p	2dd\	.	2r	.	2d\	De-	.	2r	.	.	2r	.	.	2r	.	2r	.	2r	.	2r	.	2r	.	2r	.
!	!	!	!	!	!LO:DY:a:t=p.	!	!	!	!	!	!	!	!	!	!	!	!	!	!	!	!	!	!	!	!	!	!	!	!	!	!	!
8B\L	6	8B\L	.	8B/L	p	8d/L	.	.	.	.	.	.	.	.	.	.	.	.	.	.	.	.	.	.	.	.	.	.	.	.	.	.
8A\	3	8A\	.	8A/	.	8c/	.	.	.	.	.	.	.	.	.	.	.	.	.	.	.	.	.	.	.	.	.	.	.	.	.	.
8G\J	3	8G\J	.	8G/J	.	8B/J	.	.	.	.	.	.	.	.	.	.	.	.	.	.	.	.	.	.	.	.	.	.	.	.	.	.
!	!	!	!	!	!	!	!	!	!	!	!	!	!	!	!	!	!	!LO:LB:g=original	!	!	!	!	!	!	!	!	!	!	!	!	!	!
=20	=20	=20	=20	=20	=20	=20	=20	=20	=20	=20	=20	=20	=20	=20	=20	=20	=20	=20	=20	=20	=20	=20	=20	=20	=20	=20	=20	=20	=20	=20	=20	=20
!	!	!LO:TX:a:i:t=Solo	!	!	!	!	!	!	!	!	!	!	!	!	!	!	!	!	!	!	!LO:TX:a:t=15	!	!LO:TX:a:t=15	!	!	!	!LO:TX:a:t=15	!	!LO:TX:a:t=15	!	!LO:TX:a:t=15	!
4F#X\	6	4F#X\	.	4F#X/	.	8A/	.	8dd\L	.	00r	.	8d\	-o	.	00r	.	.	00r	.	1r	00r	.	00r	.	00r	.	00r	.	00r	.	00r	.
.	.	.	.	.	.	8r	.	8dd\	.	.	.	8d\	Lu-	.	.	.	.	.	.	.	.	.	.	.	.	.	.	.	.	.	.	.
!	!	!	!LO:DY:a:t=p.	!	!	!	!	!	!	!	!	!	!	!	!	!	!	!	!	!	!	!	!	!	!	!	!	!	!	!	!	!
4r	.	4r	p	4r	.	4r	.	8dd\	.	.	.	8d\	-men	.	.	.	.	.	.	.	.	.	.	.	.	.	.	.	.	.	.	.
!	!	!	!	!	!	!	!	!	!	!	!	!LO:TX:t=P:problem:wykreślona kreska taktowa	!	!	!	!	!	!	!	!	!	!	!	!	!	!	!	!	!	!	!	!
.	.	.	.	.	.	.	.	8dd\J	.	.	.	8d\	de	.	.	.	.	.	.	.	.	.	.	.	.	.	.	.	.	.	.	.
8r	.	8r	.	8r	.	8r	.	4.dd\	.	.	.	4.d\	Lu-	.	.	.	.	.	.	.	.	.	.	.	.	.	.	.	.	.	.	.
8D\L	8 #	8D\L	.	8d\L	.	8f#X/L	.	.	.	.	.	.	.	.	.	.	.	.	.	.	.	.	.	.	.	.	.	.	.	.	.	.
8E\	_ 3	8E\	.	8e\	.	8g/	.	.	.	.	.	.	.	.	.	.	.	.	.	.	.	.	.	.	.	.	.	.	.	.	.	.
!LO:TX:t=P:problem:bc: cyfra 7 poprawiona na 5	!	!	!	!	!	!	!	!	!	!	!	!	!	!	!	!	!	!	!	!	!	!	!	!	!	!	!	!	!	!	!	!
8F#X\J	5 3	8F#X\J	.	8f#X\J	.	8a/J	.	8cc\	.	.	.	8c\	-mi-	.	.	.	.	.	.	.	.	.	.	.	.	.	.	.	.	.	.	.
!	!	!LO:LB:g=original	!	!	!	!	!	!	!	!	!	!	!	!	!	!	!	!	!	!	!	!	!	!	!	!	!	!	!	!	!	!
=21	=21	=21	=21	=21	=21	=21	=21	=21	=21	=21	=21	=21	=21	=21	=21	=21	=21	=21	=21	=21	=21	=21	=21	=21	=21	=21	=21	=21	=21	=21	=21	=21
4G\	.	4G\	.	4g\	.	4d/	.	8b\	.	.	.	8B\	-ne	.	.	.	.	.	.	1r	.	.	.	.	.	.	.	.	.	.	.	.
.	.	.	.	.	.	.	.	4b\	.	.	.	4B\	De-	.	.	.	.	.	.	.	.	.	.	.	.	.	.	.	.	.	.	.
4F#X\	6\	4F#X\	.	4B/	.	4a/	.	.	.	.	.	.	.	.	.	.	.	.	.	.	.	.	.	.	.	.	.	.	.	.	.	.
.	.	.	.	.	.	.	.	8dd#X\	.	.	.	8d#X\	-um	.	.	.	.	.	.	.	.	.	.	.	.	.	.	.	.	.	.	.
*	*	*	*	*tremolo	*	*	*	*	*	*	*	*	*	*	*	*	*	*	*	*	*	*	*	*	*	*	*	*	*	*	*	*
!	!	!	!	!	!	!	!	!	!	!	!	!LO:LB:g=original	!	!	!	!	!	!	!	!	!	!	!	!	!	!	!	!	!	!	!	!
8E\L	.	8E\L	.	8B/L	.	8g/L	.	8ee\	.	.	.	4e\	ve-	.	.	.	.	.	.	.	.	.	.	.	.	.	.	.	.	.	.	.
8F#\	.	8F#\	.	8B/	.	8a/	.	4ee\	.	.	.	.	.	.	.	.	.	.	.	.	.	.	.	.	.	.	.	.	.	.	.	.
8G\	6	8G\	.	8B/	.	8b/	.	.	.	.	.	8e\	-rum	.	.	.	.	.	.	.	.	.	.	.	.	.	.	.	.	.	.	.
8E\J	.	8E\J	.	8B/J	.	8g/J	.	8ee\	.	.	.	8e\	de	.	.	.	.	.	.	.	.	.	.	.	.	.	.	.	.	.	.	.
*	*	*	*	*Xtremolo	*	*	*	*	*	*	*	*	*	*	*	*	*	*	*	*	*	*	*	*	*	*	*	*	*	*	*	*
=22	=22	=22	=22	=22	=22	=22	=22	=22	=22	=22	=22	=22	=22	=22	=22	=22	=22	=22	=22	=22	=22	=22	=22	=22	=22	=22	=22	=22	=22	=22	=22	=22
8BB/L	#	8BB/L	.	8B/L	.	8B/	.	8dd#X\L	.	.	.	8d#X\L	De-	.	.	.	.	.	.	1r	.	.	.	.	.	.	.	.	.	.	.	.
.	.	.	.	.	.	.	.	8qff/	.	.	.	.	.	.	.	.	.	.	.	.	.	.	.	.	.	.	.	.	.	.	.	.
8C#X/	.	8C#X/	.	8c#X/	.	4B/	.	16ee\L	.	.	.	8e\	.	.	.	.	.	.	.	.	.	.	.	.	.	.	.	.	.	.	.	.
.	.	.	.	.	.	.	.	32dd#\L	.	.	.	.	.	.	.	.	.	.	.	.	.	.	.	.	.	.	.	.	.	.	.	.
.	.	.	.	.	.	.	.	32ee\JJJ	.	.	.	.	.	.	.	.	.	.	.	.	.	.	.	.	.	.	.	.	.	.	.	.
*	*	*	*	*	*	*	*	*custos:ff	*	*	*	*	*	*	*	*	*	*	*	*	*	*	*	*	*	*	*	*	*	*	*	*
!	!	!	!	!	!	!	!	!LO:LB:g=original	!	!	!	!LO:SIC:v:s=8f#\J	!	!	!	!	!	!	!	!	!	!	!	!	!	!	!	!	!	!	!	!
8D#X/	_	8D#X/	.	8d#X/	.	.	.	8ff#X\L	.	.	.	8f\J	.	.	.	.	.	.	.	.	.	.	.	.	.	.	.	.	.	.	.	.
.	.	.	.	.	.	.	.	8qqb/	.	.	.	.	.	.	.	.	.	.	.	.	.	.	.	.	.	.	.	.	.	.	.	.
!	!	!	!	!	!	!	!	!	!	!	!	!LO:TX:t=P:problem:wykreślona kreska taktowa	!	!	!	!	!	!	!	!	!	!	!	!	!	!	!	!	!	!	!	!
8BB/J	X	8BB/J	.	8B/J	.	4B/	.	16a\L	.	.	.	8A\	-o	.	.	.	.	.	.	.	.	.	.	.	.	.	.	.	.	.	.	.
.	.	.	.	.	.	.	.	32g\L	.	.	.	.	.	.	.	.	.	.	.	.	.	.	.	.	.	.	.	.	.	.	.	.
.	.	.	.	.	.	.	.	32a\JJJ	.	.	.	.	.	.	.	.	.	.	.	.	.	.	.	.	.	.	.	.	.	.	.	.
!LO:LB:g=original	!	!	!	!	!	!	!	!	!	!	!	!	!	!	!	!	!	!	!	!	!	!	!	!	!	!	!	!	!	!	!	!
8E\L	3	8E\L	.	8e\L	.	.	.	8g/L	.	.	.	8G\L	ve-	.	.	.	.	.	.	.	.	.	.	.	.	.	.	.	.	.	.	.
.	.	.	.	.	.	.	.	8qb/	.	.	.	.	.	.	.	.	.	.	.	.	.	.	.	.	.	.	.	.	.	.	.	.
8F#X\	3	8F#X\	.	8f#X\	.	4B/	.	16a/L	.	.	.	8A\J	.	.	.	.	.	.	.	.	.	.	.	.	.	.	.	.	.	.	.	.
.	.	.	.	.	.	.	.	32g/L	.	.	.	.	.	.	.	.	.	.	.	.	.	.	.	.	.	.	.	.	.	.	.	.
.	.	.	.	.	.	.	.	32a/JJJ	.	.	.	.	.	.	.	.	.	.	.	.	.	.	.	.	.	.	.	.	.	.	.	.
8G\	3	8G\	.	8g\	.	.	.	8b\L	.	.	.	8B\	-ro	.	.	.	.	.	.	.	.	.	.	.	.	.	.	.	.	.	.	.
8E\J	3	8E\J	.	8g\J	.	8B/	.	8ee\J	.	.	.	8e\	de	.	.	.	.	.	.	.	.	.	.	.	.	.	.	.	.	.	.	.
=23	=23	=23	=23	=23	=23	=23	=23	=23	=23	=23	=23	=23	=23	=23	=23	=23	=23	=23	=23	=23	=23	=23	=23	=23	=23	=23	=23	=23	=23	=23	=23	=23
8BB/L	#	8BB/L	.	8f#X\L	.	8B/	.	8dd#X\L	.	.	.	8d#X\L	De-	.	.	.	.	.	.	1r	.	.	.	.	.	.	.	.	.	.	.	.
.	.	.	.	.	.	.	.	8qff/	.	.	.	.	.	.	.	.	.	.	.	.	.	.	.	.	.	.	.	.	.	.	.	.
8C#X/	3	8C#X/	.	8e\	.	4B/	.	16ee\L	.	.	.	8e\	.	.	.	.	.	.	.	.	.	.	.	.	.	.	.	.	.	.	.	.
.	.	.	.	.	.	.	.	32dd#\L	.	.	.	.	.	.	.	.	.	.	.	.	.	.	.	.	.	.	.	.	.	.	.	.
.	.	.	.	.	.	.	.	32ee\JJJ	.	.	.	.	.	.	.	.	.	.	.	.	.	.	.	.	.	.	.	.	.	.	.	.
!	!	!	!	!	!	!	!	!LO:TX:t=P:problem:mixed beam	!	!	!	!LO:SIC:v:s=8f#\J	!	!	!	!	!	!	!	!	!	!	!	!	!	!	!	!	!	!	!	!
8D#X/	3	8D#X/	.	8d#X\	.	.	.	8ff#X\L	.	.	.	8f\J	.	.	.	.	.	.	.	.	.	.	.	.	.	.	.	.	.	.	.	.
.	.	.	.	.	.	.	.	8qb/	.	.	.	.	.	.	.	.	.	.	.	.	.	.	.	.	.	.	.	.	.	.	.	.
!	!	!	!	!	!	!	!	!	!	!	!	!LO:TX:t=P:problem:wykreślona kreska taktowa	!	!	!	!	!	!	!	!	!	!	!	!	!	!	!	!	!	!	!	!
8BB/J	.	8BB/J	.	8f#\J	.	4B/	.	16a/L	.	.	.	8A\	-o	.	.	.	.	.	.	.	.	.	.	.	.	.	.	.	.	.	.	.
.	.	.	.	.	.	.	.	32g/L	.	.	.	.	.	.	.	.	.	.	.	.	.	.	.	.	.	.	.	.	.	.	.	.
.	.	.	.	.	.	.	.	32a/JJJ	.	.	.	.	.	.	.	.	.	.	.	.	.	.	.	.	.	.	.	.	.	.	.	.
*	*	*	*	*custos:e	*	*	*	*	*	*	*	*	*	*	*	*	*	*	*	*	*	*	*	*	*	*	*	*	*	*	*	*
!	!	!	!	!LO:LB:g=original	!	!	!	!	!	!	!	!	!	!	!	!	!	!	!	!	!	!	!	!	!	!	!	!	!	!	!	!
8E\L	3	8E\L	.	8e\L	.	.	.	8g/L	.	.	.	8G\L	ve-	.	.	.	.	.	.	.	.	.	.	.	.	.	.	.	.	.	.	.
.	.	.	.	.	.	.	.	8qb/	.	.	.	.	.	.	.	.	.	.	.	.	.	.	.	.	.	.	.	.	.	.	.	.
8F#X\	3	8F#X\	.	8f#X\	.	4B/	.	16a/L	.	.	.	8A\J	.	.	.	.	.	.	.	.	.	.	.	.	.	.	.	.	.	.	.	.
.	.	.	.	.	.	.	.	32g/L	.	.	.	.	.	.	.	.	.	.	.	.	.	.	.	.	.	.	.	.	.	.	.	.
.	.	.	.	.	.	.	.	32a/JJJ	.	.	.	.	.	.	.	.	.	.	.	.	.	.	.	.	.	.	.	.	.	.	.	.
8G\	3	8G\	.	8g\	.	.	.	8b\L	.	.	.	8B\	-ro	.	.	.	.	.	.	.	.	.	.	.	.	.	.	.	.	.	.	.
8E\J	.	8E\J	.	8e\J	.	8B/	.	8ee\J	.	.	.	8r	.	.	.	.	.	.	.	.	.	.	.	.	.	.	.	.	.	.	.	.
=24	=24	=24	=24	=24	=24	=24	=24	=24	=24	=24	=24	=24	=24	=24	=24	=24	=24	=24	=24	=24	=24	=24	=24	=24	=24	=24	=24	=24	=24	=24	=24	=24
8G#X\L	6	8G#X\L	.	8B/L	.	8e/	.	16dd#X\LL	.	00r	.	4.e\	Ge-	.	00r	.	.	00r	.	1r	00r	.	00r	.	00r	.	00r	.	00r	.	00r	.
.	.	.	.	.	.	.	.	16ee\	.	.	.	.	.	.	.	.	.	.	.	.	.	.	.	.	.	.	.	.	.	.	.	.
8E\	.	8E\	.	8G#X/	.	4e/	.	16ff#X\	.	.	.	.	.	.	.	.	.	.	.	.	.	.	.	.	.	.	.	.	.	.	.	.
.	.	.	.	.	.	.	.	16ee\JJ	.	.	.	.	.	.	.	.	.	.	.	.	.	.	.	.	.	.	.	.	.	.	.	.
8G#\	.	8G#\	.	8B/	.	.	.	16bb\LL	.	.	.	.	.	.	.	.	.	.	.	.	.	.	.	.	.	.	.	.	.	.	.	.
.	.	.	.	.	.	.	.	16gg#X\	.	.	.	.	.	.	.	.	.	.	.	.	.	.	.	.	.	.	.	.	.	.	.	.
8E\J	7	8E\J	.	8G#/J	.	4e/	.	16ee\	.	.	.	8d\	-ni-	.	.	.	.	.	.	.	.	.	.	.	.	.	.	.	.	.	.	.
!	!	!	!	!	!	!	!	!LO:SIC:v:s=16ddn\JJ	!	!	!	!	!	!	!	!	!	!	!	!	!	!	!	!	!	!	!	!	!	!	!	!
.	.	.	.	.	.	.	.	16dd#\JJ	.	.	.	.	.	.	.	.	.	.	.	.	.	.	.	.	.	.	.	.	.	.	.	.
!LO:TX:t=P:problem:mixed beam	!	!LO:TX:t=P:problem:mixed beam	!	!LO:TX:t=P:problem:mixed beam	!	!	!	!	!	!	!	!	!	!	!	!	!	!	!	!	!	!	!	!	!	!	!	!	!	!	!	!
!	!	!	!	!	!	!	!	!LO:SIC:v:s=16dd\LL	!	!	!	!	!	!	!	!	!	!	!	!	!	!	!	!	!	!	!	!	!	!	!	!
8A\L	.	8A\L	.	8A/L	.	.	.	16dd#\LL	.	.	.	4c\	-tum	.	.	.	.	.	.	.	.	.	.	.	.	.	.	.	.	.	.	.
.	.	.	.	.	.	.	.	16cc\	.	.	.	.	.	.	.	.	.	.	.	.	.	.	.	.	.	.	.	.	.	.	.	.
8AA/J	.	8AA/J	.	8a\J	.	4e/	.	16b\	.	.	.	.	.	.	.	.	.	.	.	.	.	.	.	.	.	.	.	.	.	.	.	.
.	.	.	.	.	.	.	.	16cc\JJ	.	.	.	.	.	.	.	.	.	.	.	.	.	.	.	.	.	.	.	.	.	.	.	.
8r	.	8r	.	8r	.	.	.	16ee\LL	.	.	.	8r	.	.	.	.	.	.	.	.	.	.	.	.	.	.	.	.	.	.	.	.
.	.	.	.	.	.	.	.	16cc\	.	.	.	.	.	.	.	.	.	.	.	.	.	.	.	.	.	.	.	.	.	.	.	.
8c\	6	8c\	.	8A/	.	8e/	.	16b\	.	.	.	8A\	non	.	.	.	.	.	.	.	.	.	.	.	.	.	.	.	.	.	.	.
.	.	.	.	.	.	.	.	16a\JJ	.	.	.	.	.	.	.	.	.	.	.	.	.	.	.	.	.	.	.	.	.	.	.	.
=25	=25	=25	=25	=25	=25	=25	=25	=25	=25	=25	=25	=25	=25	=25	=25	=25	=25	=25	=25	=25	=25	=25	=25	=25	=25	=25	=25	=25	=25	=25	=25	=25
!	!	!	!	!	!	!	!	!LO:TX:t=P:problem:mixed beam	!	!	!	!	!	!	!	!	!	!	!	!	!	!	!	!	!	!	!	!	!	!	!	!
8e\L	#	8e\L	.	8B/L	.	8e/	.	16g#X/LL	.	.	.	4.e\	fa-	.	.	.	.	.	.	1r	.	.	.	.	.	.	.	.	.	.	.	.
.	.	.	.	.	.	.	.	16ee\	.	.	.	.	.	.	.	.	.	.	.	.	.	.	.	.	.	.	.	.	.	.	.	.
8E\	.	8E\	.	8G#X/	.	4e/	.	16dd#X\	.	.	.	.	.	.	.	.	.	.	.	.	.	.	.	.	.	.	.	.	.	.	.	.
.	.	.	.	.	.	.	.	16ee\JJ	.	.	.	.	.	.	.	.	.	.	.	.	.	.	.	.	.	.	.	.	.	.	.	.
8G#X\	6	8G#X\	.	8B/	.	.	.	16bb\LL	.	.	.	.	.	.	.	.	.	.	.	.	.	.	.	.	.	.	.	.	.	.	.	.
.	.	.	.	.	.	.	.	16gg#X\	.	.	.	.	.	.	.	.	.	.	.	.	.	.	.	.	.	.	.	.	.	.	.	.
8E\J	2	8E\J	.	8G#/J	.	4e/	.	16ee\	.	.	.	8d\	.	.	.	.	.	.	.	.	.	.	.	.	.	.	.	.	.	.	.	.
!	!	!	!	!	!	!	!	!LO:SIC:v:s=16ddn\JJ	!	!	!	!	!	!	!	!	!	!	!	!	!	!	!	!	!	!	!	!	!	!	!	!
.	.	.	.	.	.	.	.	16dd#\JJ	.	.	.	.	.	.	.	.	.	.	.	.	.	.	.	.	.	.	.	.	.	.	.	.
!LO:TX:t=P:problem:mixed beam	!	!LO:TX:t=P:problem:mixed beam	!	!LO:TX:t=P:problem:mixed beam	!	!	!	!	!	!	!	!	!	!	!	!	!	!	!	!	!	!	!	!	!	!	!	!	!	!	!	!
!	!	!	!	!	!	!	!	!LO:SIC:v:s=16dd\LL	!	!	!	!	!	!	!	!	!	!	!	!	!	!	!	!	!	!	!	!	!	!	!	!
8A\L	.	8A\L	.	8A/L	.	.	.	16dd#\LL	.	.	.	4c\	-ctum	.	.	.	.	.	.	.	.	.	.	.	.	.	.	.	.	.	.	.
.	.	.	.	.	.	.	.	16cc\	.	.	.	.	.	.	.	.	.	.	.	.	.	.	.	.	.	.	.	.	.	.	.	.
8AA/J	.	8AA/J	.	8a\J	.	4e/	.	16b\	.	.	.	.	.	.	.	.	.	.	.	.	.	.	.	.	.	.	.	.	.	.	.	.
.	.	.	.	.	.	.	.	16cc\JJ	.	.	.	.	.	.	.	.	.	.	.	.	.	.	.	.	.	.	.	.	.	.	.	.
*	*	*	*	*	*	*	*	*custos:ee	*	*	*	*	*	*	*	*	*	*	*	*	*	*	*	*	*	*	*	*	*	*	*	*
!	!	!	!	!	!	!	!	!LO:LB:g=original	!	!	!	!	!	!	!	!	!	!	!	!	!	!	!	!	!	!	!	!	!	!	!	!
8r	.	8r	.	8r	.	.	.	16ee\LL	.	.	.	4r	.	.	.	.	.	.	.	.	.	.	.	.	.	.	.	.	.	.	.	.
.	.	.	.	.	.	.	.	16b\	.	.	.	.	.	.	.	.	.	.	.	.	.	.	.	.	.	.	.	.	.	.	.	.
8c\	6	8c\	.	8A/	.	8e/	.	16cc\	.	.	.	.	.	.	.	.	.	.	.	.	.	.	.	.	.	.	.	.	.	.	.	.
.	.	.	.	.	.	.	.	16a\JJ	.	.	.	.	.	.	.	.	.	.	.	.	.	.	.	.	.	.	.	.	.	.	.	.
=26	=26	=26	=26	=26	=26	=26	=26	=26	=26	=26	=26	=26	=26	=26	=26	=26	=26	=26	=26	=26	=26	=26	=26	=26	=26	=26	=26	=26	=26	=26	=26	=26
!	!	!	!	!	!	!	!	!LO:TX:t=P:problem:mixed beam	!	!	!	!	!	!	!	!	!	!	!	!	!	!	!	!	!	!	!	!	!	!	!	!
8d\L	#	8d\L	.	8A/L	.	8d/	.	16g/LL	.	.	.	4.d\	Con-	.	.	.	.	.	.	1r	.	.	.	.	.	.	.	.	.	.	.	.
.	.	.	.	.	.	.	.	16f#X/	.	.	.	.	.	.	.	.	.	.	.	.	.	.	.	.	.	.	.	.	.	.	.	.
8D\	X	8D\	.	8F#X/	.	4d/	.	16ee\	.	.	.	.	.	.	.	.	.	.	.	.	.	.	.	.	.	.	.	.	.	.	.	.
.	.	.	.	.	.	.	.	16dd\JJ	.	.	.	.	.	.	.	.	.	.	.	.	.	.	.	.	.	.	.	.	.	.	.	.
8F#X\	_	8F#X\	.	8A/	.	.	.	16aa\LL	.	.	.	.	.	.	.	.	.	.	.	.	.	.	.	.	.	.	.	.	.	.	.	.
.	.	.	.	.	.	.	.	16ff#X\	.	.	.	.	.	.	.	.	.	.	.	.	.	.	.	.	.	.	.	.	.	.	.	.
8D\J	7	8D\J	.	8F#/J	.	4d/	.	16dd\	.	.	.	8c\	-sub-	.	.	.	.	.	.	.	.	.	.	.	.	.	.	.	.	.	.	.
.	.	.	.	.	.	.	.	16cc\JJ	.	.	.	.	.	.	.	.	.	.	.	.	.	.	.	.	.	.	.	.	.	.	.	.
*	*	*custos:G	*	*	*	*	*	*	*	*	*	*	*	*	*	*	*	*	*	*	*	*	*	*	*	*	*	*	*	*	*	*
!LO:TX:t=P:problem:mixed beam	!	!LO:TX:t=P:problem:mixed beam	!	!LO:TX:t=P:problem:mixed beam	!	!	!	!	!	!	!	!	!	!	!	!	!	!	!	!	!	!	!	!	!	!	!	!	!	!	!	!
!	!	!LO:LB:g=original	!	!	!	!	!	!	!	!	!	!	!	!	!	!	!	!	!	!	!	!	!	!	!	!	!	!	!	!	!	!
8G\L	.	8G\L	.	8G/L	.	.	.	16cc\LL	.	.	.	4.B\	-stan-	.	.	.	.	.	.	.	.	.	.	.	.	.	.	.	.	.	.	.
.	.	.	.	.	.	.	.	16b\	.	.	.	.	.	.	.	.	.	.	.	.	.	.	.	.	.	.	.	.	.	.	.	.
8GG/J	.	8GG/J	.	8g\J	.	4d/	.	16a\	.	.	.	.	.	.	.	.	.	.	.	.	.	.	.	.	.	.	.	.	.	.	.	.
.	.	.	.	.	.	.	.	16b\JJ	.	.	.	.	.	.	.	.	.	.	.	.	.	.	.	.	.	.	.	.	.	.	.	.
8r	.	8r	.	8r	.	.	.	16dd\LL	.	.	.	.	.	.	.	.	.	.	.	.	.	.	.	.	.	.	.	.	.	.	.	.
.	.	.	.	.	.	.	.	16b\	.	.	.	.	.	.	.	.	.	.	.	.	.	.	.	.	.	.	.	.	.	.	.	.
8BB/	6	8BB/	.	8G/	.	8d/	.	16a\	.	.	.	8G/	-ti-	.	.	.	.	.	.	.	.	.	.	.	.	.	.	.	.	.	.	.
.	.	.	.	.	.	.	.	16g\JJ	.	.	.	.	.	.	.	.	.	.	.	.	.	.	.	.	.	.	.	.	.	.	.	.
!	!	!	!	!	!	!LO:LB:g=original	!	!	!	!	!	!LO:LB:g=original	!	!	!	!	!	!	!	!	!	!	!	!	!	!	!	!	!	!	!	!
=27	=27	=27	=27	=27	=27	=27	=27	=27	=27	=27	=27	=27	=27	=27	=27	=27	=27	=27	=27	=27	=27	=27	=27	=27	=27	=27	=27	=27	=27	=27	=27	=27
!	!	!	!	!	!	!	!	!LO:TX:t=P:problem:mixed beam	!	!	!	!	!	!	!	!	!	!	!	!	!	!	!	!	!	!	!	!	!	!	!	!
8D\L	8 #	8D\L	.	8A/L	.	8d/	.	16f#X/LL	.	.	.	4.d\	-a-	.	.	.	.	.	.	1r	.	.	.	.	.	.	.	.	.	.	.	.
.	.	.	.	.	.	.	.	16dd\	.	.	.	.	.	.	.	.	.	.	.	.	.	.	.	.	.	.	.	.	.	.	.	.
8D\	.	8D\	.	8F#X/	.	4d/	.	16ee\	.	.	.	.	.	.	.	.	.	.	.	.	.	.	.	.	.	.	.	.	.	.	.	.
.	.	.	.	.	.	.	.	16dd\JJ	.	.	.	.	.	.	.	.	.	.	.	.	.	.	.	.	.	.	.	.	.	.	.	.
8F#X\	_	8F#X\	.	8A/	.	.	.	16aa\LL	.	.	.	.	.	.	.	.	.	.	.	.	.	.	.	.	.	.	.	.	.	.	.	.
.	.	.	.	.	.	.	.	16ff#X\	.	.	.	.	.	.	.	.	.	.	.	.	.	.	.	.	.	.	.	.	.	.	.	.
8D\J	7	8D\J	.	8F#/J	.	4d/	.	16dd\	.	.	.	8c\	-lem	.	.	.	.	.	.	.	.	.	.	.	.	.	.	.	.	.	.	.
.	.	.	.	.	.	.	.	16cc\JJ	.	.	.	.	.	.	.	.	.	.	.	.	.	.	.	.	.	.	.	.	.	.	.	.
!LO:TX:t=P:problem:mixed beam	!	!LO:TX:t=P:problem:mixed beam	!	!LO:TX:t=P:problem:mixed beam	!	!	!	!	!	!	!	!	!	!	!	!	!	!	!	!	!	!	!	!	!	!	!	!	!	!	!	!
8G\L	.	8G\L	.	8G/L	.	.	.	16cc\LL	.	.	.	4B\	.	.	.	.	.	.	.	.	.	.	.	.	.	.	.	.	.	.	.	.
.	.	.	.	.	.	.	.	16b\	.	.	.	.	.	.	.	.	.	.	.	.	.	.	.	.	.	.	.	.	.	.	.	.
8GG/J	.	8GG/J	.	8g\J	.	4d/	.	16a\	.	.	.	.	.	.	.	.	.	.	.	.	.	.	.	.	.	.	.	.	.	.	.	.
.	.	.	.	.	.	.	.	16b\JJ	.	.	.	.	.	.	.	.	.	.	.	.	.	.	.	.	.	.	.	.	.	.	.	.
8r	.	8r	.	8r	.	.	.	16dd\LL	.	.	.	4r	.	.	.	.	.	.	.	.	.	.	.	.	.	.	.	.	.	.	.	.
.	.	.	.	.	.	.	.	16b\	.	.	.	.	.	.	.	.	.	.	.	.	.	.	.	.	.	.	.	.	.	.	.	.
8G\	.	8G\	.	8G/	.	8d/	.	16a\	.	.	.	.	.	.	.	.	.	.	.	.	.	.	.	.	.	.	.	.	.	.	.	.
.	.	.	.	.	.	.	.	16g\JJ	.	.	.	.	.	.	.	.	.	.	.	.	.	.	.	.	.	.	.	.	.	.	.	.
=28	=28	=28	=28	=28	=28	=28	=28	=28	=28	=28	=28	=28	=28	=28	=28	=28	=28	=28	=28	=28	=28	=28	=28	=28	=28	=28	=28	=28	=28	=28	=28	=28
*tremolo	*	*tremolo	*	*tremolo	*	*tremolo	*	*	*	*	*	*	*	*	*	*	*	*	*	*	*	*	*	*	*	*	*	*	*	*	*	*
8Fn\L	4 2	8Fn\L	.	8B/L	.	8d/L	.	16b\LL	.	00r	.	4.B\	Pa-	.	00r	.	.	00r	.	1r	00r	.	00r	.	00r	.	00r	.	00r	.	00r	.
.	.	.	.	.	.	.	.	16g\	.	.	.	.	.	.	.	.	.	.	.	.	.	.	.	.	.	.	.	.	.	.	.	.
8F\	.	8F\	.	8B/	.	8d/	.	16dd\	.	.	.	.	.	.	.	.	.	.	.	.	.	.	.	.	.	.	.	.	.	.	.	.
.	.	.	.	.	.	.	.	16b\JJ	.	.	.	.	.	.	.	.	.	.	.	.	.	.	.	.	.	.	.	.	.	.	.	.
8F\	.	8F\	.	8B/	.	8d/	.	16gg\LL	.	.	.	.	.	.	.	.	.	.	.	.	.	.	.	.	.	.	.	.	.	.	.	.
.	.	.	.	.	.	.	.	16dd\	.	.	.	.	.	.	.	.	.	.	.	.	.	.	.	.	.	.	.	.	.	.	.	.
8F\J	.	8F\J	.	8B/J	.	8d/J	.	16b\	.	.	.	8B\	-tri	.	.	.	.	.	.	.	.	.	.	.	.	.	.	.	.	.	.	.
.	.	.	.	.	.	.	.	16g\JJ	.	.	.	.	.	.	.	.	.	.	.	.	.	.	.	.	.	.	.	.	.	.	.	.
!LO:LB:g=original	!	!	!	!	!	!	!	!	!	!	!	!	!	!	!	!	!	!	!	!	!	!	!	!	!	!	!	!	!	!	!	!
8E\L	6	8E\L	.	8c\L	.	8g/L	.	16cc\LL	.	.	.	4.c\	per	.	.	.	.	.	.	.	.	.	.	.	.	.	.	.	.	.	.	.
.	.	.	.	.	.	.	.	16g\	.	.	.	.	.	.	.	.	.	.	.	.	.	.	.	.	.	.	.	.	.	.	.	.
8E\	.	8E\	.	8c\	.	8g/	.	16ee\	.	.	.	.	.	.	.	.	.	.	.	.	.	.	.	.	.	.	.	.	.	.	.	.
.	.	.	.	.	.	.	.	16cc\JJ	.	.	.	.	.	.	.	.	.	.	.	.	.	.	.	.	.	.	.	.	.	.	.	.
8E\	.	8E\	.	8c\	.	8g/	.	16gg\LL	.	.	.	.	.	.	.	.	.	.	.	.	.	.	.	.	.	.	.	.	.	.	.	.
.	.	.	.	.	.	.	.	16ee\	.	.	.	.	.	.	.	.	.	.	.	.	.	.	.	.	.	.	.	.	.	.	.	.
8E\J	.	8E\J	.	8c\J	.	8g/J	.	16cc\	.	.	.	8c\	quem	.	.	.	.	.	.	.	.	.	.	.	.	.	.	.	.	.	.	.
.	.	.	.	.	.	.	.	16ee\JJ	.	.	.	.	.	.	.	.	.	.	.	.	.	.	.	.	.	.	.	.	.	.	.	.
*Xtremolo	*	*Xtremolo	*	*Xtremolo	*	*Xtremolo	*	*	*	*	*	*	*	*	*	*	*	*	*	*	*	*	*	*	*	*	*	*	*	*	*	*
=29	=29	=29	=29	=29	=29	=29	=29	=29	=29	=29	=29	=29	=29	=29	=29	=29	=29	=29	=29	=29	=29	=29	=29	=29	=29	=29	=29	=29	=29	=29	=29	=29
8BB/L	6 5	8BB\L	.	8d\L	.	8g/	.	16ff\LL	.	.	.	4.f\	Om-	.	.	.	.	.	.	1r	.	.	.	.	.	.	.	.	.	.	.	.
.	.	.	.	.	.	.	.	16dd\	.	.	.	.	.	.	.	.	.	.	.	.	.	.	.	.	.	.	.	.	.	.	.	.
8GG/	.	8G\	.	8B\	.	4g/	.	16b\	.	.	.	.	.	.	.	.	.	.	.	.	.	.	.	.	.	.	.	.	.	.	.	.
.	.	.	.	.	.	.	.	16g\JJ	.	.	.	.	.	.	.	.	.	.	.	.	.	.	.	.	.	.	.	.	.	.	.	.
*	*	*	*	*	*	*	*	*custos:f	*	*	*	*	*	*	*	*	*	*	*	*	*	*	*	*	*	*	*	*	*	*	*	*
!	!	!	!	!	!	!	!	!LO:LB:g=original	!	!	!	!	!	!	!	!	!	!	!	!	!	!	!	!	!	!	!	!	!	!	!	!
8BB/	.	8B\	.	8d\	.	.	.	16f/LL	.	.	.	.	.	.	.	.	.	.	.	.	.	.	.	.	.	.	.	.	.	.	.	.
.	.	.	.	.	.	.	.	16g/	.	.	.	.	.	.	.	.	.	.	.	.	.	.	.	.	.	.	.	.	.	.	.	.
8GG/J	.	8G\J	.	8B\J	.	4g/	.	16d/	.	.	.	8F/	-ni-	.	.	.	.	.	.	.	.	.	.	.	.	.	.	.	.	.	.	.
.	.	.	.	.	.	.	.	16g/JJ	.	.	.	.	.	.	.	.	.	.	.	.	.	.	.	.	.	.	.	.	.	.	.	.
!LO:TX:t=P:problem:mixed beam	!	!LO:TX:t=P:problem:mixed beam	!	!	!	!	!	!	!	!	!	!	!	!	!	!	!	!	!	!	!	!	!	!	!	!	!	!	!	!	!	!
8C/L	.	8c\L	.	8c\L	.	.	.	16e\LL	.	.	.	4E/	-a	.	.	.	.	.	.	.	.	.	.	.	.	.	.	.	.	.	.	.
.	.	.	.	.	.	.	.	16g\	.	.	.	.	.	.	.	.	.	.	.	.	.	.	.	.	.	.	.	.	.	.	.	.
8c\J	.	8C/J	.	8e\J	.	4g/	.	16cc\	.	.	.	.	.	.	.	.	.	.	.	.	.	.	.	.	.	.	.	.	.	.	.	.
.	.	.	.	.	.	.	.	16ee\JJ	.	.	.	.	.	.	.	.	.	.	.	.	.	.	.	.	.	.	.	.	.	.	.	.
8r	.	8r	.	8r	.	.	.	16gg\LL	.	.	.	4r	.	.	.	.	.	.	.	.	.	.	.	.	.	.	.	.	.	.	.	.
.	.	.	.	.	.	.	.	16ee\	.	.	.	.	.	.	.	.	.	.	.	.	.	.	.	.	.	.	.	.	.	.	.	.
8c\	.	8c\	.	8e\	.	8g/	.	16dd\	.	.	.	.	.	.	.	.	.	.	.	.	.	.	.	.	.	.	.	.	.	.	.	.
.	.	.	.	.	.	.	.	16cc\JJ	.	.	.	.	.	.	.	.	.	.	.	.	.	.	.	.	.	.	.	.	.	.	.	.
*	*	*	*	*custos:e	*	*	*	*	*	*	*	*	*	*	*	*	*	*	*	*	*	*	*	*	*	*	*	*	*	*	*	*
!	!	!	!	!LO:LB:g=original	!	!	!	!	!	!	!	!	!	!	!	!	!	!	!	!	!	!	!	!	!	!	!	!	!	!	!	!
=30	=30	=30	=30	=30	=30	=30	=30	=30	=30	=30	=30	=30	=30	=30	=30	=30	=30	=30	=30	=30	=30	=30	=30	=30	=30	=30	=30	=30	=30	=30	=30	=30
*	*	*	*	*	*	*	*	*	*	*	*	*	*ij	*	*	*	*	*	*	*	*	*	*	*	*	*	*	*	*	*	*	*
8B\L	6 5	8B\L	.	8d\L	.	8g/	.	16ff\LL	.	.	.	4.f\	Om-	.	.	.	.	.	.	1r	.	.	.	.	.	.	.	.	.	.	.	.
.	.	.	.	.	.	.	.	16dd\	.	.	.	.	.	.	.	.	.	.	.	.	.	.	.	.	.	.	.	.	.	.	.	.
8G\	.	8G\	.	8B\	.	4g/	.	16b\	.	.	.	.	.	.	.	.	.	.	.	.	.	.	.	.	.	.	.	.	.	.	.	.
.	.	.	.	.	.	.	.	16g\JJ	.	.	.	.	.	.	.	.	.	.	.	.	.	.	.	.	.	.	.	.	.	.	.	.
8B\	.	8B\	.	8d\	.	.	.	16f/LL	.	.	.	.	.	.	.	.	.	.	.	.	.	.	.	.	.	.	.	.	.	.	.	.
.	.	.	.	.	.	.	.	16g/	.	.	.	.	.	.	.	.	.	.	.	.	.	.	.	.	.	.	.	.	.	.	.	.
8G\J	.	8G\J	.	8B\J	.	8g/	.	16d/	.	.	.	8F/	-ni-	.	.	.	.	.	.	.	.	.	.	.	.	.	.	.	.	.	.	.
.	.	.	.	.	.	.	.	16g/JJ	.	.	.	.	.	.	.	.	.	.	.	.	.	.	.	.	.	.	.	.	.	.	.	.
!	!	!	!	!	!	!	!	!LO:TX:t=P:problem:mixed beam	!	!	!	!	!	!	!	!	!	!	!	!	!	!	!	!	!	!	!	!	!	!	!	!
4c\	.	4c\	.	4c\	.	4g/	.	16e/LL	.	.	.	4E/	-a	.	.	.	.	.	.	.	.	.	.	.	.	.	.	.	.	.	.	.
*	*	*	*	*	*	*	*	*	*	*	*	*	*Xij	*	*	*	*	*	*	*	*	*	*	*	*	*	*	*	*	*	*	*
.	.	.	.	.	.	.	.	16cc\	.	.	.	.	.	.	.	.	.	.	.	.	.	.	.	.	.	.	.	.	.	.	.	.
.	.	.	.	.	.	.	.	16dd\	.	.	.	.	.	.	.	.	.	.	.	.	.	.	.	.	.	.	.	.	.	.	.	.
.	.	.	.	.	.	.	.	16ee\JJ	.	.	.	.	.	.	.	.	.	.	.	.	.	.	.	.	.	.	.	.	.	.	.	.
4r	.	4r	.	4r	.	4r	.	16ff\LL	.	.	.	4r	.	.	.	.	.	.	.	.	.	.	.	.	.	.	.	.	.	.	.	.
.	.	.	.	.	.	.	.	16gg\	.	.	.	.	.	.	.	.	.	.	.	.	.	.	.	.	.	.	.	.	.	.	.	.
.	.	.	.	.	.	.	.	16aa\	.	.	.	.	.	.	.	.	.	.	.	.	.	.	.	.	.	.	.	.	.	.	.	.
.	.	.	.	.	.	.	.	16bb\JJ	.	.	.	.	.	.	.	.	.	.	.	.	.	.	.	.	.	.	.	.	.	.	.	.
=31	=31	=31	=31	=31	=31	=31	=31	=31	=31	=31	=31	=31	=31	=31	=31	=31	=31	=31	=31	=31	=31	=31	=31	=31	=31	=31	=31	=31	=31	=31	=31	=31
8r	.	8r	.	8r	.	8r	.	8ccc\L	.	.	.	4.c\	per	.	.	.	.	.	.	1r	.	.	.	.	.	.	.	.	.	.	.	.
8E\L	6	8E\L	.	8e\L	.	8g/L	.	8cc\	.	.	.	.	.	.	.	.	.	.	.	.	.	.	.	.	.	.	.	.	.	.	.	.
8E\	.	8E\	.	8e\	.	8g/	.	8cc\	.	.	.	.	.	.	.	.	.	.	.	.	.	.	.	.	.	.	.	.	.	.	.	.
8E\J	.	8E\J	.	8e\J	.	8g/J	.	8cc\J	.	.	.	8c\	quem	.	.	.	.	.	.	.	.	.	.	.	.	.	.	.	.	.	.	.
8r	.	8r	.	8r	.	8r	.	8ccc\L	.	.	.	4c\	Om-	.	.	.	.	.	.	.	.	.	.	.	.	.	.	.	.	.	.	.
8F\L	.	8F\L	.	8f\L	.	8a/L	.	8cc\	.	.	.	.	.	.	.	.	.	.	.	.	.	.	.	.	.	.	.	.	.	.	.	.
8F\	.	8F\	.	8f\	.	8a/	.	8cc\	.	.	.	8c\	-ni-	.	.	.	.	.	.	.	.	.	.	.	.	.	.	.	.	.	.	.
8F\J	.	8F\J	.	8f\J	.	8a/J	.	8cc\J	.	.	.	8c\	-a	.	.	.	.	.	.	.	.	.	.	.	.	.	.	.	.	.	.	.
=32	=32	=32	=32	=32	=32	=32	=32	=32	=32	=32	=32	=32	=32	=32	=32	=32	=32	=32	=32	=32	=32	=32	=32	=32	=32	=32	=32	=32	=32	=32	=32	=32
!	!	!	!	!	!	!	!	!LO:TX:t=P:problem:mixed beam	!	!	!	!	!	!	!	!	!	!	!	!	!	!	!	!	!	!	!	!	!	!	!	!
8r	.	8r	.	8r	.	8r	.	8ccc\L	.	0r	.	4.c\	fac-	.	0r	.	.	0r	.	1r	0r	.	0r	.	0r	.	0r	.	0r	.	0r	.
8A\L	6\	8A\L	.	8c/L	.	8d/L	.	8f#X/	.	.	.	.	.	.	.	.	.	.	.	.	.	.	.	.	.	.	.	.	.	.	.	.
8A\	.	8A\	.	8c/	.	8d/	.	8f#/	.	.	.	.	.	.	.	.	.	.	.	.	.	.	.	.	.	.	.	.	.	.	.	.
8A\J	.	8A\J	.	8c/J	.	8d/J	.	8f#/J	.	.	.	8c\	-ta	.	.	.	.	.	.	.	.	.	.	.	.	.	.	.	.	.	.	.
4G\	.	4G\	.	8B/	.	8d/	.	16g/LL	.	.	.	4B\	sunt	.	.	.	.	.	.	.	.	.	.	.	.	.	.	.	.	.	.	.
.	.	.	.	.	.	.	.	16f#/	.	.	.	.	.	.	.	.	.	.	.	.	.	.	.	.	.	.	.	.	.	.	.	.
.	.	.	.	8r	.	8r	.	16b/	.	.	.	.	.	.	.	.	.	.	.	.	.	.	.	.	.	.	.	.	.	.	.	.
.	.	.	.	.	.	.	.	16a/JJ	.	.	.	.	.	.	.	.	.	.	.	.	.	.	.	.	.	.	.	.	.	.	.	.
4r	.	4r	.	4r	.	4r	.	16cc\LL	.	.	.	4r	.	.	.	.	.	.	.	.	.	.	.	.	.	.	.	.	.	.	.	.
.	.	.	.	.	.	.	.	16b\	.	.	.	.	.	.	.	.	.	.	.	.	.	.	.	.	.	.	.	.	.	.	.	.
.	.	.	.	.	.	.	.	16ee\	.	.	.	.	.	.	.	.	.	.	.	.	.	.	.	.	.	.	.	.	.	.	.	.
.	.	.	.	.	.	.	.	16dd\JJ	.	.	.	.	.	.	.	.	.	.	.	.	.	.	.	.	.	.	.	.	.	.	.	.
!	!	!LO:LB:g=original	!	!	!	!	!	!	!	!	!	!	!	!	!	!	!	!	!	!	!	!	!	!	!	!	!	!	!	!	!	!
=33	=33	=33	=33	=33	=33	=33	=33	=33	=33	=33	=33	=33	=33	=33	=33	=33	=33	=33	=33	=33	=33	=33	=33	=33	=33	=33	=33	=33	=33	=33	=33	=33
8G\	.	4G\	.	4B/	.	4d/	.	4ff\	.	.	.	0r	.	.	.	.	.	.	.	1r	.	.	.	.	.	.	.	.	.	.	.	.
8r	.	.	.	.	.	.	.	.	.	.	.	.	.	.	.	.	.	.	.	.	.	.	.	.	.	.	.	.	.	.	.	.
4r	.	4r	.	4r	.	4r	.	8dd\L	.	.	.	.	.	.	.	.	.	.	.	.	.	.	.	.	.	.	.	.	.	.	.	.
.	.	.	.	.	.	.	.	8b\J	.	.	.	.	.	.	.	.	.	.	.	.	.	.	.	.	.	.	.	.	.	.	.	.
8r	.	8r	.	8r	.	8r	.	8g/L	.	.	.	.	.	.	.	.	.	.	.	.	.	.	.	.	.	.	.	.	.	.	.	.
8G\L	7_	8G\L	.	8B/L	.	8d/L	.	8f/	.	.	.	.	.	.	.	.	.	.	.	.	.	.	.	.	.	.	.	.	.	.	.	.
8G\	.	8G\	.	8B/	.	8d/	.	8f/	.	.	.	.	.	.	.	.	.	.	.	.	.	.	.	.	.	.	.	.	.	.	.	.
8G\J	.	8G\J	.	8B/J	.	8d/J	.	8f/J	.	.	.	.	.	.	.	.	.	.	.	.	.	.	.	.	.	.	.	.	.	.	.	.
!	!	!	!	!	!	!	!	!LO:LB:g=original	!	!	!	!	!	!	!	!	!	!	!	!	!	!	!	!	!	!	!	!	!	!	!	!
=34	=34	=34	=34	=34	=34	=34	=34	=34	=34	=34	=34	=34	=34	=34	=34	=34	=34	=34	=34	=34	=34	=34	=34	=34	=34	=34	=34	=34	=34	=34	=34	=34
!	!	!	!	!	!	!	!	!LO:TX:t=P:problem:mixed beam	!	!	!	!	!	!	!	!	!	!	!	!	!	!	!	!	!	!	!	!	!	!	!	!
4G\	7	4G\	.	8B/	.	4d/	.	8f/L	.	1r	.	.	.	.	1r	.	.	1r	.	1r	1r	.	1r	.	1r	.	1r	.	1r	.	1r	.
.	.	.	.	8r	.	.	.	8ff\	.	.	.	.	.	.	.	.	.	.	.	.	.	.	.	.	.	.	.	.	.	.	.	.
4r	.	4r	.	4r	.	4r	.	8dd\	.	.	.	.	.	.	.	.	.	.	.	.	.	.	.	.	.	.	.	.	.	.	.	.
.	.	.	.	.	.	.	.	8b\J	.	.	.	.	.	.	.	.	.	.	.	.	.	.	.	.	.	.	.	.	.	.	.	.
8r	.	8r	.	8r	.	8r	.	16g/LL	.	.	.	.	.	.	.	.	.	.	.	.	.	.	.	.	.	.	.	.	.	.	.	.
.	.	.	.	.	.	.	.	16f/	.	.	.	.	.	.	.	.	.	.	.	.	.	.	.	.	.	.	.	.	.	.	.	.
8G\L	7 5	8G\L	.	8B/L	.	8d/L	.	16d/	.	.	.	.	.	.	.	.	.	.	.	.	.	.	.	.	.	.	.	.	.	.	.	.
.	.	.	.	.	.	.	.	16B/JJ	.	.	.	.	.	.	.	.	.	.	.	.	.	.	.	.	.	.	.	.	.	.	.	.
8B\	.	8B\	.	8d/	.	8B/	.	16G/LL	.	.	.	.	.	.	.	.	.	.	.	.	.	.	.	.	.	.	.	.	.	.	.	.
.	.	.	.	.	.	.	.	16B/	.	.	.	.	.	.	.	.	.	.	.	.	.	.	.	.	.	.	.	.	.	.	.	.
8G\J	.	8G\J	.	8B/J	.	8d/J	.	16d/	.	.	.	.	.	.	.	.	.	.	.	.	.	.	.	.	.	.	.	.	.	.	.	.
.	.	.	.	.	.	.	.	16f/JJ	.	.	.	.	.	.	.	.	.	.	.	.	.	.	.	.	.	.	.	.	.	.	.	.
!	!	!	!	!	!	!LO:LB:g=original	!	!	!	!	!	!	!	!	!	!	!	!	!	!LO:LB:g=original	!	!	!	!	!LO:LB:g=origina;	!	!LO:LB:g=original	!	!	!	!LO:LB:g=original	!
=35	=35	=35	=35	=35	=35	=35	=35	=35	=35	=35	=35	=35	=35	=35	=35	=35	=35	=35	=35	=35	=35	=35	=35	=35	=35	=35	=35	=35	=35	=35	=35	=35
!LO:TX:a:i:rj:t=Tutti	!	!	!LO:DY:a:rj:t=ffor&colon;	!	!LO:DY:a:t=ffor&colon;	!	!LO:DY:a:t=ffor&colon;	!	!LO:DY:a:t=ffor&colon;	!	!	!LO:TX:a:t=T.	!	!	!	!	!	!	!	!	!	!	!	!	!	!LO:DY:a:t=ffor&colon;	!	!	!	!	!	!LO:DY:a:t=ff&colon;
4c\	.	4c\	ff	4c\	ff	4e 4G/	ff	4cc 4e\	ff	4C/	Cre-	4G/	Cre-	.	4e\	Cre-	.	4cc\	Cre-	4C/	4e/	.	4cc\	.	4e/	ff	4cc\	.	4g/	.	4ee\	ff
4C/	.	4C/	.	4c\	.	4e 4G/	.	4cc 4e\	.	4C/	-do	4G/	-do	.	4e\	-do	.	4cc\	-do	4C/	4e/	.	4cc\	.	4e/	.	4cc\	.	4g/	.	4ee\	.
!	!	!	!	!	!	!	!	!	!	!LO:LB:g=original	!	!	!	!	!	!	!	!	!	!	!	!	!	!	!	!	!	!	!	!	!	!
2r	.	2r	.	2r	.	2r	.	16b\LL	.	2r	.	2r	.	.	2r	.	.	2r	.	2r	2r	.	2r	.	2r	.	2r	.	2r	.	2r	.
.	.	.	.	.	.	.	.	16cc\	.	.	.	.	.	.	.	.	.	.	.	.	.	.	.	.	.	.	.	.	.	.	.	.
.	.	.	.	.	.	.	.	16aa\	.	.	.	.	.	.	.	.	.	.	.	.	.	.	.	.	.	.	.	.	.	.	.	.
.	.	.	.	.	.	.	.	16gg\JJ	.	.	.	.	.	.	.	.	.	.	.	.	.	.	.	.	.	.	.	.	.	.	.	.
.	.	.	.	.	.	.	.	16ff\LL	.	.	.	.	.	.	.	.	.	.	.	.	.	.	.	.	.	.	.	.	.	.	.	.
.	.	.	.	.	.	.	.	16ee\	.	.	.	.	.	.	.	.	.	.	.	.	.	.	.	.	.	.	.	.	.	.	.	.
.	.	.	.	.	.	.	.	16dd\	.	.	.	.	.	.	.	.	.	.	.	.	.	.	.	.	.	.	.	.	.	.	.	.
.	.	.	.	.	.	.	.	16cc\JJ	.	.	.	.	.	.	.	.	.	.	.	.	.	.	.	.	.	.	.	.	.	.	.	.
!LO:LB:g=original	!	!	!	!	!	!	!	!	!	!	!	!LO:LB:g=original	!	!	!	!	!	!	!	!	!LO:LB:g=origianl	!	!LO:LB:g=original	!	!	!	!	!	!	!	!	!
=36	=36	=36	=36	=36	=36	=36	=36	=36	=36	=36	=36	=36	=36	=36	=36	=36	=36	=36	=36	=36	=36	=36	=36	=36	=36	=36	=36	=36	=36	=36	=36	=36
*	*	*	*	*	*	*	*	*	*	*	*	*	*ij	*	*	*ij	*	*	*ij	*	*	*	*	*	*	*	*	*	*	*	*	*
4D\	6 3	4D\	.	4d\	.	4f 4G/	.	4b\	.	4D\	cre-	4G/	Cre-	.	4f\	Cre-	.	4b\	Cre-	4GG/	4g/	.	4g/	.	4g/	.	4gg\	.	4b\	.	4gg\	.
4D\	.	4D\	.	4d\	.	4f 4G/	.	4b\	.	4D\	-do	4G/	-do	.	4f\	-do	.	4b\	-do	4GG/	4g/	.	4g/	.	4g/	.	4gg\	.	4b\	.	4gg\	.
*	*	*	*	*	*	*	*	*	*	*	*	*	*Xij	*	*	*Xij	*	*	*Xij	*	*	*	*	*	*	*	*	*	*	*	*	*
2r	.	2r	.	2r	.	2r	.	16b\LL	.	2r	.	2r	.	.	2r	.	.	2r	.	2r	2r	.	2r	.	2r	.	2r	.	2r	.	2r	.
.	.	.	.	.	.	.	.	16dd\	.	.	.	.	.	.	.	.	.	.	.	.	.	.	.	.	.	.	.	.	.	.	.	.
.	.	.	.	.	.	.	.	16gg\	.	.	.	.	.	.	.	.	.	.	.	.	.	.	.	.	.	.	.	.	.	.	.	.
.	.	.	.	.	.	.	.	16ff\JJ	.	.	.	.	.	.	.	.	.	.	.	.	.	.	.	.	.	.	.	.	.	.	.	.
.	.	.	.	.	.	.	.	16ee\LL	.	.	.	.	.	.	.	.	.	.	.	.	.	.	.	.	.	.	.	.	.	.	.	.
.	.	.	.	.	.	.	.	16dd\	.	.	.	.	.	.	.	.	.	.	.	.	.	.	.	.	.	.	.	.	.	.	.	.
.	.	.	.	.	.	.	.	16cc\	.	.	.	.	.	.	.	.	.	.	.	.	.	.	.	.	.	.	.	.	.	.	.	.
.	.	.	.	.	.	.	.	16b\JJ	.	.	.	.	.	.	.	.	.	.	.	.	.	.	.	.	.	.	.	.	.	.	.	.
=37	=37	=37	=37	=37	=37	=37	=37	=37	=37	=37	=37	=37	=37	=37	=37	=37	=37	=37	=37	=37	=37	=37	=37	=37	=37	=37	=37	=37	=37	=37	=37	=37
*tremolo	*	*tremolo	*	*tremolo	*	*tremolo	*	*	*	*	*	*	*	*	*	*	*	*	*	*tremolo	*tremolo	*	*tremolo	*	*	*	*	*	*	*	*	*
8C/L	5 3	8C/L	.	8g\L	.	16e/LL	.	4.cc\	.	2C/	Qui	2G/	Qui	.	4.e\	Qui	.	4.cc\	Qui	8C/L	8c/L	.	8cc\L	.	2ee\	.	2gg\	.	2cc\	.	2ee\	.
.	.	.	.	.	.	16e/	.	.	.	.	.	.	.	.	.	.	.	.	.	.	.	.	.	.	.	.	.	.	.	.	.	.
8C/	.	8C/	.	8g\	.	16e/	.	.	.	.	.	.	.	.	.	.	.	.	.	8C/	8c/	.	8cc\	.	.	.	.	.	.	.	.	.
.	.	.	.	.	.	16e/JJ	.	.	.	.	.	.	.	.	.	.	.	.	.	.	.	.	.	.	.	.	.	.	.	.	.	.
8C/	.	8C/	.	8g\	.	16g/LL	.	.	.	.	.	.	.	.	.	.	.	.	.	8C/	8c/	.	8cc\	.	.	.	.	.	.	.	.	.
.	.	.	.	.	.	16g/	.	.	.	.	.	.	.	.	.	.	.	.	.	.	.	.	.	.	.	.	.	.	.	.	.	.
8C/J	.	8C/J	.	8g\J	.	16g/	.	16dd\LL	.	.	.	.	.	.	16f\LL	.	.	16dd\LL	.	8C/J	8c/J	.	8cc\J	.	.	.	.	.	.	.	.	.
.	.	.	.	.	.	16g/JJ	.	16ee\JJ	.	.	.	.	.	.	16g\JJ	.	.	16ee\JJ	.	.	.	.	.	.	.	.	.	.	.	.	.	.
8C/L	6 4	8C/L	.	8f\L	.	16a/LL	.	8ff\L	.	4C/	p(ro)p-	4c\	p(ro)p-	.	4a\	p(ro)p-	.	4ff\	prop-	8C/L	8c/L	.	8cc\L	.	2cc\	.	2ff\	.	2a/	.	2ff\	.
.	.	.	.	.	.	16a/	.	.	.	.	.	.	.	.	.	.	.	.	.	.	.	.	.	.	.	.	.	.	.	.	.	.
8C/	.	8C/	.	8f\	.	16a/	.	8ff\	.	.	.	.	.	.	.	.	.	.	.	8C/	8c/	.	8cc\	.	.	.	.	.	.	.	.	.
.	.	.	.	.	.	16a/	.	.	.	.	.	.	.	.	.	.	.	.	.	.	.	.	.	.	.	.	.	.	.	.	.	.
8C/	.	8C/	.	8f\	.	16a/	.	8ff\	.	8C/	-ter	8c\	-ter	.	8a\	-ter	.	8ff\	-ter	8C/	8c/	.	8cc\	.	.	.	.	.	.	.	.	.
.	.	.	.	.	.	16a/	.	.	.	.	.	.	.	.	.	.	.	.	.	.	.	.	.	.	.	.	.	.	.	.	.	.
8C/J	.	8C/J	.	8f\J	.	16a/	.	8ff\J	.	8C/	nos	8c\	nos	.	8a\	nos	.	8ff\	nos	8C/J	8c/J	.	8cc\J	.	.	.	.	.	.	.	.	.
*	*	*	*	*Xtremolo	*	*	*	*	*	*	*	*	*	*	*	*	*	*	*	*	*	*	*	*	*	*	*	*	*	*	*	*
.	.	.	.	.	.	16a/JJ	.	.	.	.	.	.	.	.	.	.	.	.	.	.	.	.	.	.	.	.	.	.	.	.	.	.
!	!	!	!	!LO:LB:g=original	!	!	!	!	!	!	!	!	!	!	!LO:LB:g=original	!	!	!	!	!	!	!	!	!	!	!	!	!	!	!	!	!
=38	=38	=38	=38	=38	=38	=38	=38	=38	=38	=38	=38	=38	=38	=38	=38	=38	=38	=38	=38	=38	=38	=38	=38	=38	=38	=38	=38	=38	=38	=38	=38	=38
8C/L	5 3	8C/L	.	8e\L	.	16g/LL	.	4.ee\	.	4.C/	ho-	4.c\	ho-	.	4.g\	ho-	.	4.ee\	ho-	8C/L	8c/L	.	8cc\L	.	2cc\	.	2ee\	.	2g/	.	2ee\	.
.	.	.	.	.	.	16g/	.	.	.	.	.	.	.	.	.	.	.	.	.	.	.	.	.	.	.	.	.	.	.	.	.	.
8C/	.	8C/	.	8e\	.	16g/	.	.	.	.	.	.	.	.	.	.	.	.	.	8C/	8c/	.	8cc\	.	.	.	.	.	.	.	.	.
.	.	.	.	.	.	16g/	.	.	.	.	.	.	.	.	.	.	.	.	.	.	.	.	.	.	.	.	.	.	.	.	.	.
8C/	.	8C/	.	8c\	.	16g/	.	.	.	.	.	.	.	.	.	.	.	.	.	8C/	8c/	.	8cc\	.	.	.	.	.	.	.	.	.
.	.	.	.	.	.	16g/	.	.	.	.	.	.	.	.	.	.	.	.	.	.	.	.	.	.	.	.	.	.	.	.	.	.
8C/J	.	8C/J	.	8c\J	.	16g/	.	16ff\LL	.	8C/	-mi-	8c\	-mi-	.	8g\	-mi-	.	8ee\	-mi-	8C/J	8c/J	.	8cc\J	.	.	.	.	.	.	.	.	.
.	.	.	.	.	.	16g/JJ	.	16gg\JJ	.	.	.	.	.	.	.	.	.	.	.	.	.	.	.	.	.	.	.	.	.	.	.	.
*	*	*	*	*tremolo	*	*	*	*tremolo	*	*	*	*	*	*	*	*	*	*	*	*	*	*	*	*	*tremolo	*	*tremolo	*	*	*	*	*
8C/L	6 4	8C/L	.	8c\L	.	16f/LL	.	8aa\L	.	4C/	-nes	4.c\	-nes	.	4.a\	-nes	.	4.ff\	-nes	8C/L	8c/L	.	8cc\L	.	8c/L	.	8cc\L	.	2ff\	.	2aa\	.
.	.	.	.	.	.	16f/	.	.	.	.	.	.	.	.	.	.	.	.	.	.	.	.	.	.	.	.	.	.	.	.	.	.
8C/	.	8C/	.	8c\	.	16f/	.	8aa\	.	.	.	.	.	.	.	.	.	.	.	8C/	8c/	.	8cc\	.	8c/	.	8cc\	.	.	.	.	.
.	.	.	.	.	.	16f/	.	.	.	.	.	.	.	.	.	.	.	.	.	.	.	.	.	.	.	.	.	.	.	.	.	.
8C/	.	8C/	.	8c\	.	16f/	.	8aa\	.	4C/	et	.	.	.	.	.	.	.	.	8C/	8c/	.	8cc\	.	8c/	.	8cc\	.	.	.	.	.
.	.	.	.	.	.	16f/	.	.	.	.	.	.	.	.	.	.	.	.	.	.	.	.	.	.	.	.	.	.	.	.	.	.
8C/J	.	8C/J	.	8c\J	.	16f/	.	8aa\J	.	.	.	8c\	et	.	8a\	et	.	8ff\	et	8C/J	8c/J	.	8cc\J	.	8c/J	.	8cc\J	.	.	.	.	.
.	.	.	.	.	.	16f/JJ	.	.	.	.	.	.	.	.	.	.	.	.	.	.	.	.	.	.	.	.	.	.	.	.	.	.
*Xtremolo	*	*Xtremolo	*	*	*	*	*	*Xtremolo	*	*	*	*	*	*	*	*	*	*	*	*	*	*	*	*	*	*	*	*	*	*	*	*
=39	=39	=39	=39	=39	=39	=39	=39	=39	=39	=39	=39	=39	=39	=39	=39	=39	=39	=39	=39	=39	=39	=39	=39	=39	=39	=39	=39	=39	=39	=39	=39	=39
!LO:TX:t=P:problem:mixed beam	!	!LO:TX:t=P:problem:mixed beam	!	!	!	!	!	!	!	!	!	!	!	!	!	!	!	!	!	!	!	!	!	!	!	!	!	!	!	!	!	!
8C/L	5 3	8C/L	.	8c\L	.	16e/LL	.	8.gg\L	.	4C/	p(ro)p-	4c\	prop-	.	4g\	p(ro)p-	.	4ee\	prop-	8C/L	8c/L	.	8cc\L	.	8c/L	.	8cc\L	.	2ee\	.	2gg\	.
.	.	.	.	.	.	16e/	.	.	.	.	.	.	.	.	.	.	.	.	.	.	.	.	.	.	.	.	.	.	.	.	.	.
8c\	.	8c\	.	8c\	.	16e/	.	.	.	.	.	.	.	.	.	.	.	.	.	8C/	8c/	.	8cc\	.	8c/	.	8cc\	.	.	.	.	.
.	.	.	.	.	.	16e/	.	32aa\LL	.	.	.	.	.	.	.	.	.	.	.	.	.	.	.	.	.	.	.	.	.	.	.	.
.	.	.	.	.	.	.	.	32bb\JJJ	.	.	.	.	.	.	.	.	.	.	.	.	.	.	.	.	.	.	.	.	.	.	.	.
*	*	*	*	*	*	*	*	*custos:ccc	*	*	*	*	*	*	*	*	*	*	*	*	*	*	*	*	*	*	*	*	*	*	*	*
!	!	!	!	!	!	!	!	!LO:LB:g=original	!	!	!	!	!	!	!	!	!	!	!	!	!	!	!	!	!	!	!	!	!	!	!	!
8c\	.	8c\	.	8c\	.	16e/	.	16ccc\LL	.	4C/	-ter	4c\	-ter	.	4g\	-ter	.	4ee\	-ter	8C/	8c/	.	8cc\	.	8c/	.	8cc\	.	.	.	.	.
.	.	.	.	.	.	16e/	.	16gg\	.	.	.	.	.	.	.	.	.	.	.	.	.	.	.	.	.	.	.	.	.	.	.	.
8c\J	.	8c\J	.	8c\J	.	16e/	.	16ee\	.	.	.	.	.	.	.	.	.	.	.	8C/J	8c/J	.	8cc\J	.	8c/J	.	8cc\J	.	.	.	.	.
.	.	.	.	.	.	16e/JJ	.	16cc\JJ	.	.	.	.	.	.	.	.	.	.	.	.	.	.	.	.	.	.	.	.	.	.	.	.
*tremolo	*	*tremolo	*	*	*	*	*	*tremolo	*	*	*	*	*	*	*	*	*	*	*	*	*	*	*	*	*	*	*	*	*	*	*	*
8c\L	6 4	8c\L	.	8c\L	.	16a/LL	.	8ff\L	.	4c\	nos-	4c\	nos-	.	4a\	noſ-	.	4ff\	nos-	8C/L	8c/L	.	8cc\L	.	8c/L	.	8cc\L	.	2a/	.	2ff\	.
.	.	.	.	.	.	16a/	.	.	.	.	.	.	.	.	.	.	.	.	.	.	.	.	.	.	.	.	.	.	.	.	.	.
8c\	.	8c\	.	8c\	.	16a/	.	8ff\	.	.	.	.	.	.	.	.	.	.	.	8C/	8c/	.	8cc\	.	8c/	.	8cc\	.	.	.	.	.
.	.	.	.	.	.	16a/	.	.	.	.	.	.	.	.	.	.	.	.	.	.	.	.	.	.	.	.	.	.	.	.	.	.
8c\	.	8c\	.	8c\	.	16a/	.	8ff\	.	8c\	-tram	8c\	-tram	.	8a\	-tram	.	8ff\	-tram	8C/	8c/	.	8cc\	.	8c/	.	8cc\	.	.	.	.	.
.	.	.	.	.	.	16a/	.	.	.	.	.	.	.	.	.	.	.	.	.	.	.	.	.	.	.	.	.	.	.	.	.	.
!	!	!	!	!	!	!	!	!	!	!	!	!	!	!	!	!	!	!LO:LB:g=original	!	!	!	!	!	!	!	!	!	!	!	!	!	!
8c\J	.	8c\J	.	8c\J	.	16a/	.	8ff\J	.	8c\	Sa-	8c\	Sa-	.	8a\	Sa-	.	8ff\	Sa-	8C/J	8c/J	.	8cc\J	.	8c/J	.	8cc\J	.	.	.	.	.
.	.	.	.	.	.	16a/JJ	.	.	.	.	.	.	.	.	.	.	.	.	.	.	.	.	.	.	.	.	.	.	.	.	.	.
*	*	*	*	*	*	*	*	*Xtremolo	*	*	*	*	*	*	*	*	*	*	*	*	*	*	*	*	*	*	*	*	*	*	*	*
=40	=40	=40	=40	=40	=40	=40	=40	=40	=40	=40	=40	=40	=40	=40	=40	=40	=40	=40	=40	=40	=40	=40	=40	=40	=40	=40	=40	=40	=40	=40	=40	=40
8c\L	5 3	8c\L	.	8c\L	.	16g/LL	.	8ee\L	.	4c\	-lu-	4c\	-lu-	.	4g\	-lu-	.	4ee\	-lu-	8C/L	8c/L	.	8cc\L	.	8c/L	.	8cc\L	.	4g/	.	4ee\	.
.	.	.	.	.	.	16g/	.	.	.	.	.	.	.	.	.	.	.	.	.	.	.	.	.	.	.	.	.	.	.	.	.	.
8c\	.	8c\	.	8c\	.	16g/	.	8ee\	.	.	.	.	.	.	.	.	.	.	.	8C/	8c/	.	8cc\	.	8c/	.	8cc\	.	.	.	.	.
.	.	.	.	.	.	16g/JJ	.	.	.	.	.	.	.	.	.	.	.	.	.	.	.	.	.	.	.	.	.	.	.	.	.	.
8c\	6 4	8c\	.	8c\	.	16f/LL	.	8aa\	.	8c\	-tem	8c\	-tem	.	8a\	-tem	.	8ff\	-tem	8C/	8c/	.	8cc\	.	8c/	.	8cc\	.	4ff\	.	4aa\	.
.	.	.	.	.	.	16f/	.	.	.	.	.	.	.	.	.	.	.	.	.	.	.	.	.	.	.	.	.	.	.	.	.	.
8c\J	.	8c\J	.	8c\J	.	16f/	.	8aa\J	.	8c\	deſ-	8c\	des-	.	8a\	deſ-	.	8ff\	des-	8C/J	8c/J	.	8cc\J	.	8c/J	.	8cc\J	.	.	.	.	.
.	.	.	.	.	.	16f/JJ	.	.	.	.	.	.	.	.	.	.	.	.	.	.	.	.	.	.	.	.	.	.	.	.	.	.
*	*	*	*	*	*	*	*	*	*	*	*	*	*	*	*	*	*	*	*	*	*Xtremolo	*	*Xtremolo	*	*Xtremolo	*	*Xtremolo	*	*	*	*	*
8c\L	5 3	8c\L	.	8c\L	.	16e/LL	.	8gg\L	.	(4c\	-cen-	(4c\	-cen-	.	(4g\	-cen-	.	(4ee\	-cen-	8C/L	8c/L	.	8cc\L	.	8c/L	.	8cc\L	.	4ee\	.	4gg\	.
.	.	.	.	.	.	16e/	.	.	.	.	.	.	.	.	.	.	.	.	.	.	.	.	.	.	.	.	.	.	.	.	.	.
8c\	.	8c\	.	8c\	.	16e/	.	8gg\	.	.	.	.	.	.	.	.	.	.	.	8C/	8c/	.	8cc\	.	8c/	.	8cc\	.	.	.	.	.
.	.	.	.	.	.	16e/JJ	.	.	.	.	.	.	.	.	.	.	.	.	.	.	.	.	.	.	.	.	.	.	.	.	.	.
8c\	4 2	8c\	.	8c\	.	16f/LL	.	8bb\	.	4G\)	.	4B\)	.	.	4f\)	.	.	4dd\)	.	8C/	8g/	.	8dd\	.	8g/	.	8dd\	.	4ff 4dd\	.	4ff\	.
.	.	.	.	.	.	16f/	.	.	.	.	.	.	.	.	.	.	.	.	.	.	.	.	.	.	.	.	.	.	.	.	.	.
8c\J	.	8c\J	.	8c\J	.	16f/	.	8bb\J	.	.	.	.	.	.	.	.	.	.	.	8C/J	8g/J	.	8dd\J	.	8g/J	.	8dd\J	.	.	.	.	.
.	.	.	.	.	.	16f/JJ	.	.	.	.	.	.	.	.	.	.	.	.	.	.	.	.	.	.	.	.	.	.	.	.	.	.
*Xtremolo	*	*Xtremolo	*	*Xtremolo	*	*Xtremolo	*	*	*	*	*	*	*	*	*	*	*	*	*	*Xtremolo	*	*	*	*	*	*	*	*	*	*	*	*
!	!	!	!	!	!	!	!	!	!	!	!	!	!	!	!	!	!	!	!	!	!	!	!	!	!	!	!	!	!LO:LB:g=original	!	!	!
=41	=41	=41	=41	=41	=41	=41	=41	=41	=41	=41	=41	=41	=41	=41	=41	=41	=41	=41	=41	=41	=41	=41	=41	=41	=41	=41	=41	=41	=41	=41	=41	=41
!	!	!	!	!LO:TX:t=P:problem:mixed beam	!	!	!	!	!	!	!	!	!	!	!	!	!	!	!	!	!	!	!	!	!	!	!	!	!	!	!	!
4c\	.	4c\	.	8c\L	.	4e/	.	16ccc\LL	.	4C/	-dit	4c\	-dit	.	4g\	-dit	.	4ee\	-dit	4C/	4e/	.	4cc\	.	4cc\	.	4ee\	.	4cc\	.	4ee\	.
.	.	.	.	.	.	.	.	16bb\	.	.	.	.	.	.	.	.	.	.	.	.	.	.	.	.	.	.	.	.	.	.	.	.
.	.	.	.	8C/J	.	.	.	16aa\	.	.	.	.	.	.	.	.	.	.	.	.	.	.	.	.	.	.	.	.	.	.	.	.
.	.	.	.	.	.	.	.	16gg\JJ	.	.	.	.	.	.	.	.	.	.	.	.	.	.	.	.	.	.	.	.	.	.	.	.
8r	.	8r	.	8r	.	8r	.	16ff\LL	.	8r	.	8r	.	.	8r	.	.	8r	.	8r	8r	.	8r	.	8r	.	8r	.	8r	.	8r	.
.	.	.	.	.	.	.	.	16ee\	.	.	.	.	.	.	.	.	.	.	.	.	.	.	.	.	.	.	.	.	.	.	.	.
!	!	!LO:LB:g=original	!	!	!	!	!	!	!	!	!	!	!	!	!	!	!	!	!	!	!	!	!	!	!	!	!	!	!	!	!	!
8c\	.	8c\	.	8c/	.	8e/	.	16dd\	.	8c\	des-	8c\	de	.	8g\	deſ-	.	8ee\	des-	8C/	8e/	.	8cc\	.	8cc\	.	8ee\	.	8ee\	.	8gg\	.
.	.	.	.	.	.	.	.	16cc\JJ	.	.	.	.	.	.	.	.	.	.	.	.	.	.	.	.	.	.	.	.	.	.	.	.
*	*	*	*	*	*	*	*	*	*	*	*	*	*	*	*	*	*	*2\right	*	*tremolo	*tremolo	*	*tremolo	*	*	*	*	*	*	*	*	*
8B\L	6	8B\L	.	8B/L	.	16d/LL	.	16ff#X\LL	.	2G\	-cen-	2B\	Cae-	.	2g\	-cen-	.	2dd\	-cen-	8GG/L	8g/L	.	8dd\L	.	2g/	.	2dd\	.	2dd\	.	2gg\	.
.	.	.	.	.	.	16g/	.	16gg\	.	.	.	.	.	.	.	.	.	.	.	.	.	.	.	.	.	.	.	.	.	.	.	.
8G\	.	8G\	.	8G/	.	16d/	.	16aa\	.	.	.	.	.	.	.	.	.	.	.	8GG/	8g/	.	8dd\	.	.	.	.	.	.	.	.	.
.	.	.	.	.	.	16g/JJ	.	16gg\JJ	.	.	.	.	.	.	.	.	.	.	.	.	.	.	.	.	.	.	.	.	.	.	.	.
*	*	*	*	*	*	*rep	*	*	*	*	*	*	*	*	*	*	*	*	*	*	*	*	*	*	*	*	*	*	*	*	*	*
8B\	_	8B\	.	8B/	.	16d/LL	.	16dd\LL	.	.	.	.	.	.	.	.	.	.	.	8GG/	8g/	.	8dd\	.	.	.	.	.	.	.	.	.
.	.	.	.	.	.	16g/	.	16ee\	.	.	.	.	.	.	.	.	.	.	.	.	.	.	.	.	.	.	.	.	.	.	.	.
8G\J	7	8G\J	.	8G/J	.	16d/	.	16ffn\	.	.	.	.	.	.	.	.	.	.	.	8GG/J	8g/J	.	8dd\J	.	.	.	.	.	.	.	.	.
.	.	.	.	.	.	16g/JJ	.	16dd\JJ	.	.	.	.	.	.	.	.	.	.	.	.	.	.	.	.	.	.	.	.	.	.	.	.
*	*	*	*	*	*	*Xrep	*	*	*	*	*	*	*	*	*	*	*	*	*	*Xtremolo	*Xtremolo	*	*Xtremolo	*	*	*	*	*	*	*	*	*
!	!	!	!	!	!	!	!	!	!	!LO:LB:g=original	!	!	!	!	!	!	!	!	!	!	!	!	!	!	!	!	!	!	!	!	!	!
=42	=42	=42	=42	=42	=42	=42	=42	=42	=42	=42	=42	=42	=42	=42	=42	=42	=42	=42	=42	=42	=42	=42	=42	=42	=42	=42	=42	=42	=42	=42	=42	=42
!LO:TX:t=P:problem:mixed beam	!	!LO:TX:t=P:problem:mixed beam	!	!LO:TX:t=P:problem:mixed beam	!	!	!	!	!	!	!	!	!	!	!	!	!	!	!	!	!	!	!	!	!	!	!	!	!	!	!	!
8c\L	.	8c\L	.	8c\L	.	16e/LL	.	16ee\LL	.	4C/	-dit	4c\	-lis	.	4g\	-dit	.	4ee\	-dit	8C/L	4cc\	.	4ee\	.	4cc\	.	4ee\	.	4ee\	.	4gg\	.
.	.	.	.	.	.	16g/	.	16gg\	.	.	.	.	.	.	.	.	.	.	.	.	.	.	.	.	.	.	.	.	.	.	.	.
8C/J	.	8C/J	.	8C/J	.	16e/	.	16aa\	.	.	.	.	.	.	.	.	.	.	.	8C/J	.	.	.	.	.	.	.	.	.	.	.	.
.	.	.	.	.	.	16g/JJ	.	16gg\JJ	.	.	.	.	.	.	.	.	.	.	.	.	.	.	.	.	.	.	.	.	.	.	.	.
*	*	*	*	*	*	*rep	*	*	*	*	*	*	*	*	*	*	*	*	*	*	*	*	*	*	*	*	*	*	*	*	*	*
8r	.	8r	.	8r	.	16e/LL	.	16ccc\LL	.	8r	.	8r	.	.	8r	.	.	8r	.	8r	8r	.	8r	.	8r	.	8r	.	8r	.	8r	.
.	.	.	.	.	.	16g/	.	16gg\	.	.	.	.	.	.	.	.	.	.	.	.	.	.	.	.	.	.	.	.	.	.	.	.
8c\	.	8c\	.	8c\	.	16e/	.	16ee\	.	8c\	de	8c\	de	.	8g\	de	.	8ee\	de	8C/	8e/	.	8cc\	.	8cc\	.	8ee\	.	8ee\	.	8gg\	.
.	.	.	.	.	.	16g/JJ	.	16cc\JJ	.	.	.	.	.	.	.	.	.	.	.	.	.	.	.	.	.	.	.	.	.	.	.	.
*	*	*	*	*	*	*Xrep	*	*	*	*	*	*	*	*	*	*	*	*	*	*tremolo	*tremolo	*	*tremolo	*	*tremolo	*	*	*	*	*	*	*
8B\L	6	8B\L	.	8B/L	.	16d/LL	.	16ff#X\LL	.	2G\	Cae-	2B\	Cae-	.	2g\	Cae-	.	2dd\	Cae-	8GG/L	8g/L	.	8dd\L	.	8g/L	.	2dd\	.	2dd\	.	2gg\	.
.	.	.	.	.	.	16g/	.	16gg\	.	.	.	.	.	.	.	.	.	.	.	.	.	.	.	.	.	.	.	.	.	.	.	.
8G\	.	8G\	.	8G/	.	16d/	.	16aa\	.	.	.	.	.	.	.	.	.	.	.	8GG/	8g/	.	8dd\	.	8g/	.	.	.	.	.	.	.
.	.	.	.	.	.	16g/JJ	.	16gg\JJ	.	.	.	.	.	.	.	.	.	.	.	.	.	.	.	.	.	.	.	.	.	.	.	.
*	*	*	*	*	*	*rep	*	*	*	*	*	*	*	*	*	*	*	*	*	*	*	*	*	*	*	*	*	*	*	*	*	*
8B\	.	8B\	.	8B/	.	16d/LL	.	16dd\LL	.	.	.	.	.	.	.	.	.	.	.	8GG/	8g/	.	8dd\	.	8g/	.	.	.	.	.	.	.
.	.	.	.	.	.	16g/	.	16ee\	.	.	.	.	.	.	.	.	.	.	.	.	.	.	.	.	.	.	.	.	.	.	.	.
8G\J	7	8G\J	.	8G/J	.	16d/	.	16ffn\	.	.	.	.	.	.	.	.	.	.	.	8GG/J	8g/J	.	8dd\J	.	8g/J	.	.	.	.	.	.	.
.	.	.	.	.	.	16g/JJ	.	16dd\JJ	.	.	.	.	.	.	.	.	.	.	.	.	.	.	.	.	.	.	.	.	.	.	.	.
*	*	*	*	*	*	*Xrep	*	*	*	*	*	*	*	*	*	*	*	*	*	*Xtremolo	*Xtremolo	*	*Xtremolo	*	*Xtremolo	*	*	*	*	*	*	*
!	!	!	!	!	!	!LO:LB:g=original	!	!	!	!	!	!LO:LB:g=original	!	!	!	!	!	!	!	!	!	!	!	!	!	!	!	!	!	!	!	!
=43	=43	=43	=43	=43	=43	=43	=43	=43	=43	=43	=43	=43	=43	=43	=43	=43	=43	=43	=43	=43	=43	=43	=43	=43	=43	=43	=43	=43	=43	=43	=43	=43
!	!	!	!	!	!	!LO:TX:t=P:problem:mixed beam	!	!	!	!	!	!	!	!	!	!	!	!	!	!	!	!	!	!	!	!	!	!	!	!	!	!
8c\L	.	8c\L	.	8c\L	.	16e/LL	.	16ee\LL	.	4c\	-lis	4c\	-lis	.	4g\	-lis	.	4ee\	-lis	4C/	4cc\	.	4ee\	.	4cc\	.	4ee\	.	4ee\	.	4gg\	.
.	.	.	.	.	.	16cc\	.	16gg\	.	.	.	.	.	.	.	.	.	.	.	.	.	.	.	.	.	.	.	.	.	.	.	.
8E\	6	8E\	.	8e\	.	16cc\	.	16ccc\	.	.	.	.	.	.	.	.	.	.	.	.	.	.	.	.	.	.	.	.	.	.	.	.
.	.	.	.	.	.	16cc\JJ	.	16gg\JJ	.	.	.	.	.	.	.	.	.	.	.	.	.	.	.	.	.	.	.	.	.	.	.	.
*	*	*	*	*	*	*tremolo	*	*	*	*	*	*	*	*	*	*	*	*	*	*	*	*	*	*	*	*	*	*	*	*	*	*
!	!	!	!	!	!	!	!	!LO:TX:t=P:problem:mixed beam	!	!	!	!	!	!	!	!	!	!	!	!LO:TX:t=P:problem:2r poprawina na dwie 4r	!	!	!	!	!	!	!	!	!	!	!	!
8F\	.	8F\	.	8f\	.	16cc\LL	.	16aa\LL	.	4F\	des-	4c\	deſ-	.	4a\	deſ-	.	4cc\	des-	4r	4r	.	4r	.	4cc\	.	4cc\	.	4cc\	.	4aa\	.
.	.	.	.	.	.	16cc\	.	16a/	.	.	.	.	.	.	.	.	.	.	.	.	.	.	.	.	.	.	.	.	.	.	.	.
8F\J	.	8F\J	.	8f\J	.	16cc\	.	16ff\	.	.	.	.	.	.	.	.	.	.	.	.	.	.	.	.	.	.	.	.	.	.	.	.
.	.	.	.	.	.	16cc\JJ	.	16dd\JJ	.	.	.	.	.	.	.	.	.	.	.	.	.	.	.	.	.	.	.	.	.	.	.	.
!LO:TX:t=P:problem:mixed beam	!	!LO:TX:t=P:problem:mixed beam	!	!	!	!	!	!LO:LB:g=original	!	!	!	!	!	!	!	!	!	!	!	!	!	!	!	!	!	!	!	!	!	!	!	!
8G\L	6 4	8G\L	.	8e\L	.	16cc\LL	.	16ee\LL	.	2G\	-cen-	(4e\	-cen-	.	2g\	-cen-	.	(4cc\	-cen-	4r	4e/	.	4cc\	.	4cc\	.	4ee\	.	4cc\	.	4ee\	.
.	.	.	.	.	.	16cc\	.	16gg\	.	.	.	.	.	.	.	.	.	.	.	.	.	.	.	.	.	.	.	.	.	.	.	.
8G\	.	8G\	.	8e\	.	16cc\	.	16cc\	.	.	.	.	.	.	.	.	.	.	.	.	.	.	.	.	.	.	.	.	.	.	.	.
.	.	.	.	.	.	16cc\JJ	.	16ee\JJ	.	.	.	.	.	.	.	.	.	.	.	.	.	.	.	.	.	.	.	.	.	.	.	.
8GG/	5 3	8GG/	.	8f\	.	16b\LL	.	16dd\LL	.	.	.	4d\)	.	.	.	.	.	4b\)	.	4GG/	4g/	.	4dd\	.	4g/	.	4dd\	.	4b\	.	4dd\	.
.	.	.	.	.	.	16b\	.	16ff\	.	.	.	.	.	.	.	.	.	.	.	.	.	.	.	.	.	.	.	.	.	.	.	.
8GG/J	.	8GG/J	.	8f\J	.	16b\	.	16b\	.	.	.	.	.	.	.	.	.	.	.	.	.	.	.	.	.	.	.	.	.	.	.	.
.	.	.	.	.	.	16b\JJ	.	16dd\JJ	.	.	.	.	.	.	.	.	.	.	.	.	.	.	.	.	.	.	.	.	.	.	.	.
=44	=44	=44	=44	=44	=44	=44	=44	=44	=44	=44	=44	=44	=44	=44	=44	=44	=44	=44	=44	=44	=44	=44	=44	=44	=44	=44	=44	=44	=44	=44	=44	=44
*	*	*	*	*	*	*	*	*	*	*	*	*	*	*	*	*	*	*	*	*	*	*	*	*	*	*	*tremolo	*	*tremolo	*	*	*
8C\L	.	8C\L	.	8e\L	.	16cc\LL	.	16cc\LL	.	4C/	-dit	4e\	-dit	.	4g\	-dit	.	4cc\	-dit	4C/	4e/	.	4cc\	.	8cc\L	.	8cc\L	.	8cc\L	.	8ee\L	.
.	.	.	.	.	.	16cc\	.	16ee\	.	.	.	.	.	.	.	.	.	.	.	.	.	.	.	.	.	.	.	.	.	.	.	.
8E\	6	8E\	.	8e\	.	16cc\	.	16gg\	.	.	.	.	.	.	.	.	.	.	.	.	.	.	.	.	8cc\	.	8cc\	.	8cc\	.	8gg\	.
.	.	.	.	.	.	16cc\	.	16ccc\JJ	.	.	.	.	.	.	.	.	.	.	.	.	.	.	.	.	.	.	.	.	.	.	.	.
.	.	.	.	.	.	.	.	8qbb/	.	.	.	.	.	.	.	.	.	.	.	.	.	.	.	.	.	.	.	.	.	.	.	.
!	!	!	!	!	!	!	!	!	!	!	!	!	!	!	!LO:LB:g=original	!	!	!	!	!	!	!	!	!	!	!	!	!	!	!	!	!
8F\	.	8F\	.	8f\	.	16cc\	.	8aa\L	.	4F\	de	4f\	de	.	4a\	de	.	4cc\	de	4r	4r	.	4r	.	8cc\	.	8cc\	.	8cc\	.	8aa\	.
.	.	.	.	.	.	16cc\	.	.	.	.	.	.	.	.	.	.	.	.	.	.	.	.	.	.	.	.	.	.	.	.	.	.
8F\J	.	8F\J	.	8f\J	.	16cc\	.	16gg\L	.	.	.	.	.	.	.	.	.	.	.	.	.	.	.	.	8cc\J	.	8cc\J	.	8cc\J	.	8ff\J	.
.	.	.	.	.	.	16cc\JJ	.	16ff\JJ	.	.	.	.	.	.	.	.	.	.	.	.	.	.	.	.	.	.	.	.	.	.	.	.
*	*	*	*	*tremolo	*	*Xtremolo	*	*	*	*	*	*	*	*	*	*	*	*	*	*	*	*	*	*	*	*	*Xtremolo	*	*Xtremolo	*	*	*
!LO:LB:g=original	!	!	!	!	!	!	!	!	!	!	!	!	!	!	!	!	!	!	!	!	!	!	!	!	!	!	!	!	!	!	!	!
!LO:TX:t=P:problem:mixed beam	!	!LO:TX:t=P:problem:mixed beam	!	!	!	!	!	!	!	!	!	!	!	!	!	!	!	!	!	!	!	!	!	!	!	!	!	!	!	!	!	!
8G\L	6 4	8G\L	.	8g\L	.	16cc\LL	.	8ee\L	.	2G\	Cae-	(4e\	Cae-	.	2g\	Cae-	.	(4cc\	Cae-	4r	4e/	.	4cc\	.	4cc\	.	4ee\	.	8cc\L	.	4ee\	.
.	.	.	.	.	.	16ee\	.	.	.	.	.	.	.	.	.	.	.	.	.	.	.	.	.	.	.	.	.	.	.	.	.	.
8G\	.	8G\	.	8g\	.	16ee\	.	8ccc\	.	.	.	.	.	.	.	.	.	.	.	.	.	.	.	.	.	.	.	.	8ee\	.	.	.
.	.	.	.	.	.	16ee\JJ	.	.	.	.	.	.	.	.	.	.	.	.	.	.	.	.	.	.	.	.	.	.	.	.	.	.
8GG/	5 3	8GG/	.	8g\	.	8dd\L	.	8dd\	.	.	.	4d\)	.	.	.	.	.	4b\)	.	4GG/	4g/	.	4dd\	.	4g/	.	4dd\	.	8dd\	.	4dd\	.
8GG/J	.	8GG/J	.	8g\J	.	8dd\J	.	8bb\J	.	.	.	.	.	.	.	.	.	.	.	.	.	.	.	.	.	.	.	.	8b\J	.	.	.
*	*	*	*	*Xtremolo	*	*	*	*	*	*	*	*	*	*	*	*	*	*	*	*	*	*	*	*	*	*	*	*	*	*	*	*
=45	=45	=45	=45	=45	=45	=45	=45	=45	=45	=45	=45	=45	=45	=45	=45	=45	=45	=45	=45	=45	=45	=45	=45	=45	=45	=45	=45	=45	=45	=45	=45	=45
4C/	.	4C/	.	4g\	.	4ee\	.	4ccc\	.	4C/	-lis	4e\	-lis	.	4g\	-lis	.	4cc\	-lis	4C/	4e/	.	4cc\	.	4e/	.	4cc\	.	4cc\	.	4ee\	.
4r	.	4r	.	4r	.	4r	.	4r	.	4r	.	4r	.	.	4r	.	.	4r	.	4r	4r	.	4r	.	4r	.	4r	.	4r	.	4r	.
2r	.	2r	.	2r	.	2r	.	2r	.	2r	.	2r	.	.	2r	.	.	2r	.	2r	2r	.	2r	.	2r	.	2r	.	2r	.	2r	.
!LO:TX:t=45	!	!	!	!	!	!	!	!LO:TX:t=45	!	!	!	!	!	!	!	!	!	!	!	!LO:TX:b::rj:t=Et incarnatus T[a]cet	!	!	!	!	!	!	!	!	!	!	!	!
==	==	==	==	==	==	==	==	==	==	==	==	==	==	==	==	==	==	==	==	==	==	==	==	==	==	==	==	==	==	==	==	==
*-	*-	*-	*-	*-	*-	*-	*-	*-	*-	*-	*-	*-	*-	*-	*-	*-	*-	*-	*-	*-	*-	*-	*-	*-	*-	*-	*-	*-	*-	*-	*-	*-
!!!system-decoration: [(g1)][(g2)][(g3)][(g4)][(g5)]g6
!!!RDF**kern: i = editorial accidental
!!!RDF**kern: > = above
!!!RDF**kern: < = below
!!!RDF**kern: N = linked
!!!RDF**dynam: > = "dim.", fontstyle= "italic"
!!!ENC: Filip Voros
!!!EED: Katarzyna Serwa
!!!END: 2023-11-28
!!!EEV: 2024-04-19
